!!!!SEGMENT: pl-cz--iii-114--006_dankowski-adalbert--vesperae-d-laetatus-sum.krn
!!!cenid: 18xx:811
!!!COM: Dankowski, Adalbert
!!!COM-rismID: pe30000793
!!!CDT: ~1760-~1836
!!!CNT: Polish
!!!OPR: Vesperae D
!!!OTL: Laetatus sum
!!!OMV: 006
!!!PDT:
!!!AGN: Sacred; Vespers
!!!SMS-siglum: PL-CZ
!!!SMS-shelfmark: III-114
!!!SMS-shelfwork: 001-006 M
!!!SMS-variant:
!!!SMS-altvar:
!!!NIFC-rismSourceID: 300000113
!!!NIFC-rismChildID: 300000113
!!!NIFC-islandoraID: pl-cz:34509
!!!URL-pdf-islandora: https://repozytorium.nifc.pl/islandora/object/pl-cz%3A34509/datastream/PDF/view
!!!URL-scan: https://polish.musicsources.pl/pl/lokalizacje/galeria/rekopisy/6831/1 @EN{Scan on Polish Music Sources Website} @PL{Skany w portalu Dziedzictwo Muzyki Polskiej w otwartym dostępie}
!!!ONB-nifc: UWAGA: części Vesperae: Dixit Dominus, Juravit Dominus, Judicabit, Gloria, Laudate pueri, Laetatus sum, Nisi Dominus, Lauda Jerusalem, Magnificat, Et misericordia, Gloria. Uwaga: brak partii vl 1, fl 1 i 2
!!!AIN: 1 alto 1 bass 2 cor 1 organ 1 tenor 1 violn
!!!key: D
**kern	**fba	**dynam	**kern	**dynam	**kern	**text	**kern	**text	**kern	**text	**kern	**text	**kern	**kern
*group4	*	*	*group3	*	*group2	*	*group2	*	*group2	*	*group2	*	*group1	*group1
*part8	*part8	*part8	*part7	*part7	*part6	*part6	*part5	*part5	*part4	*part4	*part3	*part3	*part2	*part1
*staff8	*	*	*staff7	*	*staff6	*staff6	*staff5	*staff5	*staff4	*staff4	*staff3	*staff3	*staff2	*staff1
*I"Organo	*	*	*I"Violino Secondo	*	*I"Baſso	*	*I"Tenore	*	*I"Alto	*	*I"Canto	*	*I"Cornu Secondo Ex D:	*I"Cornu Primo Ex D:
*I'[Org]	*	*	*I'[Vl 2]	*	*I'[B]	*	*I'[T]	*	*I'[A]	*	*I'[S]	*	*I'[Cor 2 in D]	*I'[Cor 1 in D]
*Iorgan	*	*	*Ivioln	*	*Ibass	*	*Itenor	*	*Ialto	*	*	*	*Icor	*Icor
*ICklav	*	*	*ICstr	*	*ICvox	*	*ICvox	*	*ICvox	*	*	*	*ICbras	*ICbras
*IGcont	*	*	*IGacmp	*	*IGcoro	*	*IGcoro	*	*IGcoro	*	*	*	*IGacmp	*IGacmp
*clefF4	*	*	*clefG2	*	*clefF4	*	*clefC4	*	*clefC3	*	*clefC1	*	*clefG2	*clefG2
*	*	*	*	*	*	*	*	*	*	*	*	*	*ITrd6c10	*ITrd6c10
*k[f#c#]	*	*	*k[f#c#]	*	*k[f#c#]	*	*k[f#c#]	*	*k[f#c#]	*	*k[f#c#]	*	*k[f#c#]	*k[f#c#]
*D:	*	*	*D:	*	*D:	*	*D:	*	*D:	*	*D:	*	*D:	*D:
*M4/4	*	*	*M4/4	*	*M4/4	*	*M4/4	*	*M4/4	*	*M4/4	*	*M4/4	*M4/4
*met(c)	*	*	*met(c)	*	*met(c)	*	*met(c)	*	*met(c)	*	*met(c)	*	*met(c)	*met(c)
!!LO:TX:t=P:problem:pod nutami znajduje się także tekst Confitebor
!	!	!	!	!	!	!	!LO:TX:a:t=P:problem=oznaczenie metryczne C z kropką	!	!	!	!LO:TX:a:t=P:problem=oznaczenie metryczne C z kropką	!	!LO:TX:a:t=P:problem=brak przedtaktu	!LO:TX:a:t=P:problem=brak przedtaktu
!LO:TX:a:t=P:problem=oznaczenie metryczne C z kropką	!	!	!LO:TX:a:t=P:problem=oznaczenie metryczne C z kropką	!	!LO:TX:a:t=P:problem=oznaczenie metryczne C z kropką	!	!LO:TX:a:t=P:problem=kolejność znaków c# F#	!	!LO:TX:a:t=P:problem=oznaczenie metryczne C z kropką	!	!LO:TX:a:i:t=Solo&colon;	!	!LO:TX:a:t=P:problem=oznaczenie metryczne C z kropką	!LO:TX:a:t=P:problem=oznaczenie metryczne C z kropką
!LO:TX:a:B:t=allo&colon;	!	!LO:DY:a:t=pio.	!LO:TX:a:B:t=allo&colon;	!	!LO:TX:a:B:t=allo&colon;	!	!LO:TX:a:B:t=allo&colon;	!	!LO:TX:a:B:t=allo&colon;	!	!LO:TX:a:B:t=allo&colon;	!	!LO:TX:a:B:t=allo&colon;	!LO:TX:a:B:t=allo
8r	.	p	8r	.	8r	.	8r	.	8r	.	8a\	Lae-	8ryy	8ryy
=1	=1	=1	=1	=1	=1	=1	=1	=1	=1	=1	=1	=1	=1	=1
*	*	*	*^	*	*	*	*	*	*	*	*	*	*	*
!	!	!	!	!	!LO:DY:a:rj:t=pio&colon;	!	!	!	!	!	!	!	!	!	!
8d\L	.	.	8a/L	8f#\L	p	0r	.	0r	.	0r	.	8dd\	-ta-	00r	00r
8d\	.	.	8a/	8f#\	.	.	.	.	.	.	.	16dd\LL	-tus	.	.
.	.	.	.	.	.	.	.	.	.	.	.	16ff#\JJ	.	.	.
8c#\	6	.	8a/	8e\	.	.	.	.	.	.	.	8ee\	ſum	.	.
8c#\J	.	.	8a/J	8e\J	.	.	.	.	.	.	.	8a\	lae-	.	.
8d\L	.	.	8a/L	8f#\L	.	.	.	.	.	.	.	(>16dd\LL	-ta-	.	.
.	.	.	.	.	.	.	.	.	.	.	.	16ee\)	.	.	.
8d\	.	.	8a/	8f#\	.	.	.	.	.	.	.	(>16ff#\	.	.	.
.	.	.	.	.	.	.	.	.	.	.	.	16dd\JJ)	.	.	.
8c#\J	6	.	8a/J	8e\J	.	.	.	.	.	.	.	8ee\	-tus	.	.
8r	.	.	8r	8ryy	.	.	.	.	.	.	.	8a\	lae-	.	.
=2	=2	=2	=2	=2	=2	=2-	=2	=2-	=2	=2-	=2	=2	=2	=2-	=2-
8c#\L	6	.	8a/L	8g\L	.	.	.	.	.	.	.	8ee\	-ta-	.	.
!	!	!	!	!	!	!	!	!	!	!	!	!LO:TX:a:t=P:problem=niejednoznaczny zapis nad nutami [przyjęto staccato]	!	!	!
8c#\	.	.	8a/	8g\	.	.	.	.	.	.	.	16ee'>\LL	-tus	.	.
.	.	.	.	.	.	.	.	.	.	.	.	16gg'>\JJ	.	.	.
8d\	.	.	8a/	8f#\	.	.	.	.	.	.	.	8ff#\	ſum	.	.
8d\J	.	.	8a/J	8f#\J	.	.	.	.	.	.	.	8dd\	lae-	.	.
!	!	!	!	!	!	!	!	!	!	!	!	!LO:LB:g=original	!	!	!
8c#\L	6 5	.	8a/L	8g\L	.	.	.	.	.	.	.	16ee\LL	-ta-	.	.
.	.	.	.	.	.	.	.	.	.	.	.	16ff#\	.	.	.
8c#\	.	.	8a/	8g\	.	.	.	.	.	.	.	16gg\	.	.	.
.	.	.	.	.	.	.	.	.	.	.	.	16ee\JJ	.	.	.
8d\J	.	.	8a/J	8f#\J	.	.	.	.	.	.	.	8ff#\	-tus	.	.
8r	.	.	8r	8ryy	.	.	.	.	.	.	.	8a\	in	.	.
*	*	*	*v	*v	*	*	*	*	*	*	*	*	*	*	*
=3	=3	=3	=3	=3	=3-	=3	=3-	=3	=3-	=3	=3	=3	=3-	=3-
8D\L	.	.	8f#/L	.	1r	.	1r	.	1r	.	4dd\	his	.	.
8D\	.	.	8f#/	.	.	.	.	.	.	.	.	.	.	.
8G\	6 x	.	8b/	.	.	.	.	.	.	.	4ee\	quae	.	.
8G\J	.	.	8b/J	.	.	.	.	.	.	.	.	.	.	.
!!mixed beam:problem
!LO:TX:t=P:problem=mixed beam	!	!	!	!	!	!	!	!	!	!	!	!	!	!
8A\L	.	.	8a/L	.	.	.	.	.	.	.	16ff#\LL	dic-	.	.
.	.	.	.	.	.	.	.	.	.	.	16ee\	.	.	.
8AA/J	.	.	8g/	.	.	.	.	.	.	.	16dd\	.	.	.
.	.	.	.	.	.	.	.	.	.	.	16cc#\JJ	.	.	.
8D\L	.	.	8f#/	.	.	.	.	.	.	.	8dd\	-ta	.	.
8F#\J	6 x	.	8a/J	.	.	.	.	.	.	.	8dd\	quae	.	.
=4	=4	=4	=4	=4	=4	=4	=4	=4	=4	=4	=4	=4	=4-	=4-
8E\L	6 3	.	8g/L	.	2r	.	2r	.	2r	.	8cc#\L	dic-	.	.
8C#\	.	.	8g/J	.	.	.	.	.	.	.	8ee\J	.	.	.
8D\	.	.	16f#/LL	.	.	.	.	.	.	.	16dd\LL	-ta	.	.
.	.	.	16a/	.	.	.	.	.	.	.	16ff#\JJ	.	.	.
8F#\J	.	.	16g/	.	.	.	.	.	.	.	16ee\LL	ſunt	.	.
.	.	.	16f#/JJ	.	.	.	.	.	.	.	16dd\JJ	.	.	.
!	!	!	!LO:LB:g=original	!	!	!	!	!	!	!	!	!	!	!
!!mixed beam:problem
!LO:TX:t=P:problem=mixed beam	!	!	!	!	!	!	!	!	!	!	!	!	!	!
8A\L	x 4	.	8.f#/L	.	4r	.	4r	.	4r	.	4dd\	mi-	.	.
8A\	x 3	.	.	.	.	.	.	.	.	.	.	.	.	.
.	.	.	32e/LL	.	.	.	.	.	.	.	.	.	.	.
.	.	.	32f#/JJJ	.	.	.	.	.	.	.	.	.	.	.
8AA/	.	.	8e/L	.	8r	.	8r	.	8r	.	8cc#\	-hi	.	.
8A\J	.	.	8a/J	.	8A\	in	8A\	in	8a\	in	8a\	In	.	.
!LO:LB:g=original	!	!	!	!	!	!	!	!	!	!	!LO:LB:g=original	!	!	!
=5	=5	=5	=5	=5	=5	=5	=5	=5	=5	=5	=5	=5	=5-	=5-
!LO:TX:a:t=tutti:rj	!	!	!	!LO:DY:a:rj:t=f&colon;	!	!	!	!	!	!	!	!	!	!
8d'>\L	.	.	8ddL	f	8d\	Do-	8d\	Do-	8d\	Do-	8dd\	Do-	0r	0r
16f#'>\L	.	.	16ff#\L	.	16f#\LL	-mum	16f#\LL	-mum	16f#\LL	-mum	16ff#\LL	-mum	.	.
16e'>\JJ	.	.	16ee\JJ	.	16e\JJ	.	16e\JJ	.	16e\JJ	.	16ee\JJ	.	.	.
8d'>\L	.	.	8dd\L	.	8d\	Do-	8d\	Do-	8d\	Do-	8dd\	Do-	.	.
8c#'>\J	.	.	8cc#\J	.	8c#\	-mi-	8c#\	-mi-	8c#\	-mi-	8cc#\	-mi-	.	.
8d'>\L	.	.	8dd\L	.	8d\	-ni	8d\	-ni	8d\	-ni	8dd\	-ni	.	.
16d'>\L	.	.	16dd\L	.	16d\LL	i-	(>16d\LL	I-	(>16dd\LL	i-	16dd\LL	i-	.	.
!	!	!	!	!	!LO:TX:a:t=P:problem=niejednoznaczny zapis łuku	!	!	!	!	!	!LO:TX:a:t=P:problem=niejednoznaczny zapis łuku	!	!	!
16c#'>\JJ	.	.	16cc#\JJ	.	(>16c#\JJ	.	16c#\JJ	.	16cc#\JJ	.	(>16cc#\JJ	.	.	.
8B'>\L	.	.	8b\L	.	8B\)	.	8B\)	.	8b\)	.	8b\)	.	.	.
8A#X'>\J	.	.	8a#X\J	.	8A#X\	-bi-	8A#X\	-bi-	8a#X\	-bi-	8a#X\	-bi-	.	.
!	!	!	!	!	!	!	!LO:LB:g=original	!	!	!	!	!	!	!
=6	=6	=6	=6	=6	=6	=6	=6	=6	=6	=6	=6	=6	=6-	=6-
8B'>\L	.	.	8b/L	.	8B\	-mus	8B\	-mus	8b\	-mus	8b\	-mus	.	.
!	!	!	!	!	!	!	!	!	!	!	!LO:LB:g=original	!	!	!
16G'>\L	.	.	16g/L	.	16G\LL	Do-	16G/LL	Do-	16g\LL	Do-	16g\LL	Do-	.	.
16F#'>\JJ	.	.	16f#/JJ	.	16F#\JJ	.	16F#/JJ	.	16f#\JJ	.	16f#\JJ	.	.	.
16G'>\LL	.	.	16g/LL	.	16G\LL	.	16G\LL	.	16g\LL	.	16g\LL	.	.	.
16An'>\	.	.	16a/	.	16A\	.	16A\	.	16a\	.	16a\	.	.	.
16B'>\	.	.	16b/	.	16B\	.	16B\	.	16b\	.	16b\	.	.	.
16c#'>\JJ	.	.	16cc#/JJ	.	16c#\JJ	.	16c#\JJ	.	16cc#\JJ	.	16cc#\JJ	.	.	.
!	!	!	!	!	!LO:LB:g=original	!	!	!	!	!	!	!	!	!
!!mixed beam:problem
!	!	!	!LO:TX:t=P:problem=mixed beam	!	!	!	!	!	!	!	!	!	!	!
8d'\L	.	.	8dd\L	.	8d\	-mi-	8d\	mi-	8dd\	mi-	8dd\	mi-	.	.
8F#'\	.	.	8f#/	.	8F#\	-ni	8F#/	-ni	8f#\	-ni	8f#/	-ni	.	.
8G'\	.	.	8g/	.	8G\	i-	8G/	i-	8g\	i-	8g\	i-	.	.
8A'\J	.	.	8a/J	.	8A\	-bi-	8A\	-bi-	8a\	-bi-	8a\	-bi-	.	.
!	!	!	!	!	!	!	!	!	!	!	!LO:LB:g=original	!	!	!
=7	=7	=7	=7	=7	=7	=7	=7	=7	=7	=7	=7	=7	=7	=7
*	*	*	*^	*	*	*	*	*	*	*	*	*	*	*
*tremolo	*	*	*	*	*	*	*	*	*	*	*	*	*	*	*
*2\right	*	*	*	*Xtremolo	*	*	*	*	*	*	*	*	*	*	*
8D\L	.	.	16a/LL	16f#\LL	.	4D\	-mus	4d\	-mus	4f#\	-mus	4dd\	-mus	8D/L	8d\L
.	.	.	16a/	16f#\	.	.	.	.	.	.	.	.	.	.	.
8D\	.	.	16a/	16f#\	.	.	.	.	.	.	.	.	.	16D/L	16d\L
.	.	.	16a/JJ	16f#\JJ	.	.	.	.	.	.	.	.	.	16D/JJ	16d\JJ
*	*	*	*tremolo	*tremolo	*	*	*	*	*	*	*	*	*	*	*
8D\	.	.	16a/LL	16f#\LL	.	8D\	ſtan-	8d\	ſtan-	8a\	ſtan-	8ff#\	ſtan-	8D/L	8d\L
.	.	.	16a/	16f#\	.	.	.	.	.	.	.	.	.	.	.
8D\J	.	.	16a/	16f#\	.	8D\	-tes	8d\	-tes	8a\	-tes	8ff#\	-tes	8D/J	8d\J
.	.	.	16a/JJ	16f#\JJ	.	.	.	.	.	.	.	.	.	.	.
*	*	*	*2\right	*	*	*2\right	*	*2\right	*	*2\right	*	*2\right	*	*	*
8D\L	6 4	.	16b/LL	16g\LL	.	2D\	e-	2d\	e-	2b\	e-	2gg\	e-	8D/L	8d\L
.	.	.	16b/	16g\	.	.	.	.	.	.	.	.	.	.	.
8D\	.	.	16b/	16g\	.	.	.	.	.	.	.	.	.	16D/L	16d\L
.	.	.	16b/	16g\	.	.	.	.	.	.	.	.	.	16D/JJ	16d\JJ
8D\	.	.	16b/	16g\	.	.	.	.	.	.	.	.	.	8D/L	8d\L
.	.	.	16b/	16g\	.	.	.	.	.	.	.	.	.	.	.
8D\J	.	.	16b/	16g\	.	.	.	.	.	.	.	.	.	8D/J	8d\J
.	.	.	16b/JJ	16g\JJ	.	.	.	.	.	.	.	.	.	.	.
=8	=8	=8	=8	=8	=8	=8	=8	=8	=8	=8	=8	=8	=8	=8	=8
8D\L	5 3	.	16a/LL	16f#\LL	.	4D\	-rant	4d\	-rant	4a\	-rant	4ff#\	-rant	8D/L	8d\L
.	.	.	16a/	16f#\	.	.	.	.	.	.	.	.	.	.	.
8D\	.	.	16a/	16f#\	.	.	.	.	.	.	.	.	.	16D/L	16d\L
.	.	.	16a/	16f#\	.	.	.	.	.	.	.	.	.	16D/JJ	16d\JJ
8D\	.	.	16a/	16f#\	.	8D\	pe-	8d\	pe-	8a\	pe	8ff#\	pe	8D/L	8d\L
.	.	.	16a/	16f#\	.	.	.	.	.	.	.	.	.	.	.
8D\J	.	.	16a/	16f#\	.	8D\	-des	8d\	-des	8a\	des	8ff#\	des	8D/J	8d\J
.	.	.	16a/JJ	16f#\JJ	.	.	.	.	.	.	.	.	.	.	.
8D\L	5 4	.	16b/LL	16g\LL	.	2D\	noſ-	2d\	Noſ-	2b\	Noſ-	2gg\	noſ-	8D/L	8d\L
.	.	.	16b/	16g\	.	.	.	.	.	.	.	.	.	.	.
8D\	.	.	16b/	16g\	.	.	.	.	.	.	.	.	.	16D/L	16d\L
.	.	.	16b/	16g\	.	.	.	.	.	.	.	.	.	16D/JJ	16d\JJ
8D\	.	.	16b/	16g\	.	.	.	.	.	.	.	.	.	8D/L	8d\L
.	.	.	16b/	16g\	.	.	.	.	.	.	.	.	.	.	.
8D\J	.	.	16b/	16g\	.	.	.	.	.	.	.	.	.	8D/J	8d\J
.	.	.	16b/JJ	16g\JJ	.	.	.	.	.	.	.	.	.	.	.
=9	=9	=9	=9	=9	=9	=9	=9	=9	=9	=9	=9	=9	=9	=9	=9
*	*	*	*tremolo	*tremolo	*	*	*	*	*	*	*	*	*	*	*2\right
8D\L	5 3	.	16a/LL	16f#\LL	.	4D\	-tri	4d\	-tri	4a\	-tri	4ff#\	-tri	4D/	2d\
.	.	.	16a/	16f#\	.	.	.	.	.	.	.	.	.	.	.
8D\	.	.	16a/	16f#\	.	.	.	.	.	.	.	.	.	.	.
.	.	.	16a/	16f#\	.	.	.	.	.	.	.	.	.	.	.
!	!	!	!	!	!	!	!	!LO:LB:g=original	!	!	!	!	!	!	!
8D\	.	.	16a/	16f#\	.	4D\	in	4d\	in	4a\	in	4ff#\	in	4F#/	.
.	.	.	16a/	16f#\	.	.	.	.	.	.	.	.	.	.	.
8D\J	.	.	16a/	16f#\	.	.	.	.	.	.	.	.	.	.	.
.	.	.	16a/JJ	16f#\JJ	.	.	.	.	.	.	.	.	.	.	.
*Xtremolo	*	*	*	*	*	*	*	*	*	*	*	*	*	*	*
!	!	!	!	!	!	!	!	!	!	!LO:LB:g=original	!	!	!	!	!
8C#\L	6 5	.	16a/LL	16e\LL	.	4C#/	a-	4e\	a-	4a\	a-	4ee\	a-	4A/	4e\
.	.	.	16a/	16e\	.	.	.	.	.	.	.	.	.	.	.
8C#\	.	.	16a/	16e\	.	.	.	.	.	.	.	.	.	.	.
.	.	.	16a/	16e\JJ	.	.	.	.	.	.	.	.	.	.	.
!	!	!	!	!	!	!	!	!	!LO:MO:P=-tris	!	!LO:MO:P=-tris	!	!	!	!
8D\	.	.	16a/	16f#\LL	.	4D\	-tris	4d\	-trys	4a\	-trys	4ff#\	-tris	4d\	4f#\
.	.	.	16a/	16f#\	.	.	.	.	.	.	.	.	.	.	.
8D\J	.	.	16a/	16f#\	.	.	.	.	.	.	.	.	.	.	.
.	.	.	16a/JJ	16f#\JJ	.	.	.	.	.	.	.	.	.	.	.
*	*	*	*Xtremolo	*Xtremolo	*	*	*	*	*	*	*	*	*	*	*
*	*	*	*v	*v	*	*	*	*	*	*	*	*	*	*	*
!	!	!	!LO:LB:g=original	!	!	!	!	!	!	!	!	!	!	!
=10	=10	=10	=10	=10	=10	=10	=10	=10	=10	=10	=10	=10	=10	=10
8G\L	6: x	.	8b\L	.	4G\	tu-	4B\	tu-	4g\	tu-	4ee\	tu-	4e\	4g\
8G\	.	.	8b\	.	.	.	.	.	.	.	.	.	.	.
8G\	.	.	8b\	.	8G\	-is	8B\	-is	8g\	-is	8ee\	-is	8e\L	8g\L
8G#X\J	5 x	.	8b\J	.	8G#X\	Je-	8B\	Je-	8f#\	Je-	8dd\	Je-	8d\J	8f#\J
!LO:LB:g=original	!	!	!	!	!LO:LB:g=original	!	!	!	!	!	!	!	!	!
!!mixed beam:problem
!LO:TX:t=P:problem=mixed beam	!	!	!	!	!	!	!	!	!	!	!	!	!	!
8A\L	x 4	.	8.f#/L	.	8.A\	-ru-	8.A\	-ru-	8.f#\	-ru-	8.dd\	-ru-	4d\	4f#\
8A\	.	.	.	.	.	.	.	.	.	.	.	.	.	.
!	!	!	!LO:TX:a:t=10:color=gray	!	!	!	!	!	!	!	!	!	!	!
.	.	.	32e/LL	.	16A\	-ſa-	16A\	-ſa-	16f#\	-ſa-	16cc#\	-ſa-	.	.
.	.	.	32f#/JJJ	.	.	.	.	.	.	.	.	.	.	.
8AA/	x 3	.	8e/L	.	4A\	-lem	4A\	-lem	4e\	-lem	4cc#\	-lem	4A/	4e\
8AA/J	.	.	16c#/L	.	.	.	.	.	.	.	.	.	.	.
.	.	.	16e/JJ	.	.	.	.	.	.	.	.	.	.	.
!	!	!	!	!	!	!	!	!	!	!	!LO:LB:g=original	!	!LO:LB:g=original	!LO:LB:g=original
=11	=11	=11	=11	=11	=11	=11	=11	=11	=11	=11	=11	=11	=11	=11
*	*	*	*	*	*	*	*	*ij	*	*	*	*	*	*
8A\L	3: x	.	8a/L	.	4A\	Je-	4A\	Je-	4e\	Je-	4cc#\	Je-	2A/	2e\
8A\	.	.	32c#/LL	.	.	.	.	.	.	.	.	.	.	.
.	.	.	32B/	.	.	.	.	.	.	.	.	.	.	.
.	.	.	32c#/	.	.	.	.	.	.	.	.	.	.	.
.	.	.	32d/JJJ	.	.	.	.	.	.	.	.	.	.	.
8Gn\	.	.	16c#/LL	.	8Gn\	-ru-	8A\	-ru-	8e\	-ru-	8cc#\	-ru-	.	.
.	.	.	16A/	.	.	.	.	.	.	.	.	.	.	.
8G\J	.	.	16e/	.	8G\	-ſa-	8A\	-ſa-	8e\	-ſa-	8cc#\	-ſa-	.	.
.	.	.	16c#/JJ	.	.	.	.	.	.	.	.	.	.	.
8F#\L	6 x	.	16d/LL	.	4F#\	-lem	4A\	-lem	4f#\	-lem	4dd\	-lem	4d\	4f#\
.	.	.	16e/	.	.	.	.	.	.	.	.	.	.	.
8F#\	.	.	16f#/	.	.	.	.	.	.	.	.	.	.	.
.	.	.	16d/JJ	.	.	.	.	.	.	.	.	.	.	.
*	*	*	*	*	*	*	*	*Xij	*	*	*	*	*	*
8C#\	6 5	.	16e/LL	.	4C#/	quae	4A\	quae	4g\	quae	4ee\	quae	4e\	4g\
.	.	.	16f#/	.	.	.	.	.	.	.	.	.	.	.
8C#\J	.	.	16g/	.	.	.	.	.	.	.	.	.	.	.
.	.	.	16a/JJ	.	.	.	.	.	.	.	.	.	.	.
=12	=12	=12	=12	=12	=12	=12	=12	=12	=12	=12	=12	=12	=12	=12
8D\L	.	.	16f#/LL	.	4D\	ae-	4A\	ae-	4f#\	ae-	4dd\	ae-	4d\	4f#\
.	.	.	16e/	.	.	.	.	.	.	.	.	.	.	.
8D\	.	.	16f#/	.	.	.	.	.	.	.	.	.	.	.
.	.	.	16d/JJ	.	.	.	.	.	.	.	.	.	.	.
8G\	4: 2:	.	16c#/LL	.	8G\	-di-	8A\	-di-	8e\	-di-	8cc#\	-di-	4A/	4e\
.	.	.	16A/	.	.	.	.	.	.	.	.	.	.	.
8G\J	.	.	16e/	.	8G\	-fi-	8A\	-fi-	8e\	-fi-	8cc#\	-fi-	.	.
.	.	.	16c#/JJ	.	.	.	.	.	.	.	.	.	.	.
!	!	!	!	!	!	!	!LO:LB:g=original	!	!	!	!	!	!	!
8F#\L	6 X	.	16d/LL	.	4F#\	-ca-	4A\	-ca-	4f#\	-ca-	4dd\	-ca-	4d\	4f#\
.	.	.	16e/	.	.	.	.	.	.	.	.	.	.	.
8F#\	.	.	16f#/	.	.	.	.	.	.	.	.	.	.	.
.	.	.	16d/JJ	.	.	.	.	.	.	.	.	.	.	.
8C#\	6 5	.	16e/LL	.	8C#/	-tur	8A\	-tur	8g\	-tur	8ee\	-tur	4e\	4g\
.	.	.	16f#/	.	.	.	.	.	.	.	.	.	.	.
8C#\J	.	.	16g/	.	8C#/	ut	8A\	ut	8g\	ut	8ee\	ut	.	.
.	.	.	16a/JJ	.	.	.	.	.	.	.	.	.	.	.
!	!	!	!	!	!	!	!	!	!LO:LB:g=original	!	!LO:PB:g=original	!	!	!
=13	=13	=13	=13	=13	=13	=13	=13	=13	=13	=13	=13	=13	=13	=13
*	*	*	*	*	*	*	*	*	*	*	*	*	*2\right	*
8D\L	.	.	16g/LL	.	4D\	Ci-	4.A\	Ci-	4.f#\	Ci-	4.dd\	Ci-	2d\	2f#\
.	.	.	16f#/	.	.	.	.	.	.	.	.	.	.	.
8D\	.	.	16a/	.	.	.	.	.	.	.	.	.	.	.
.	.	.	16f#/JJ	.	.	.	.	.	.	.	.	.	.	.
!	!	!	!LO:LB:g=original	!	!	!	!	!	!	!	!	!	!	!
8F#\	6 x	.	16e/LL	.	4F#\	-vi-	.	.	.	.	.	.	.	.
.	.	.	16d/	.	.	.	.	.	.	.	.	.	.	.
8F#\J	.	.	16c#/	.	.	.	8A\	-vi-	8f#\	-vi-	8dd\	-vi-	.	.
.	.	.	16d/JJ	.	.	.	.	.	.	.	.	.	.	.
4A\	.	.	16c#/LL	.	4A\	-tas	4A\	-tas	4e\	-tas	4cc#\	-tas	4A/	4e\
.	.	.	16d/	.	.	.	.	.	.	.	.	.	.	.
.	.	.	16e/	.	.	.	.	.	.	.	.	.	.	.
.	.	.	16c#/JJ	.	.	.	.	.	.	.	.	.	.	.
8r	.	.	8A/L	.	8r	.	8r	.	8r	.	8r	.	4r	4r
8c#\	6 x	.	8a/J	.	(>8c#\	Cu-	(>8A\	Cu-	(>8a\	Cu-	(>8ee\	Cu-	.	.
!	!	!	!	!	!LO:LB:g=original	!	!	!	!	!	!	!	!	!
=14	=14	=14	=14	=14	=14	=14	=14	=14	=14	=14	=14	=14	=14	=14
8d\L	.	.	8ff#\L	.	4d\)	.	4d\)	.	4f#\)	.	4dd\)	.	2r	2r
8d\	.	.	16ff#\L	.	.	.	.	.	.	.	.	.	.	.
.	.	.	16aa\JJ	.	.	.	.	.	.	.	.	.	.	.
8B\	6 3	.	16gg#X\LL	.	4B\	-jus	4e\	-jus	4g#X\	-jus	4dd\	-jus	.	.
.	.	.	16ee\	.	.	.	.	.	.	.	.	.	.	.
8B\J	.	.	16bb\	.	.	.	.	.	.	.	.	.	.	.
.	.	.	16gg#\JJ	.	.	.	.	.	.	.	.	.	.	.
8c#\L	6 x	.	16aa\LL	.	4c#\	par-	8e\	par-	4a\	par-	4cc#\	par-	4r	4r
.	.	.	16ee\	.	.	.	.	.	.	.	.	.	.	.
8c#\	.	.	16cc#\	.	.	.	8e\	-ti-	.	.	.	.	.	.
.	.	.	16ee\JJ	.	.	.	.	.	.	.	.	.	.	.
!	!	!	!	!	!	!	!LO:SIC:v:s:t=4e\	!	!	!	!	!	!	!
8A\	.	.	16dd\LL	.	8A\	-ti-	4d\	-ci-	8cc#\	-ti-	8ee\	-ti-	4A/	4e\
.	.	.	16cc#\	.	.	.	.	.	.	.	.	.	.	.
8A\J	.	.	16b\	.	8A\	-ci-	.	.	8cc#\	-ci-	8ee\	-ci-	.	.
.	.	.	16cc#\JJ	.	.	.	.	.	.	.	.	.	.	.
!LO:LB:g=original	!	!	!	!	!	!	!	!	!	!	!	!	!	!
=15	=15	=15	=15	=15	=15	=15	=15	=15	=15	=15	=15	=15	=15	=15
8G#X\L	6 5	.	8.dd\L	.	4G#X\	-pa-	4e\	-pa-	4b\	-pa-	4dd\	-pa-	4e\	4e\
8G#\	.	.	.	.	.	.	.	.	.	.	.	.	.	.
.	.	.	32cc#\LL	.	.	.	.	.	.	.	.	.	.	.
.	.	.	32dd\JJJ	.	.	.	.	.	.	.	.	.	.	.
8E\	.	.	16bb\LL	.	4E\	-ti-	4e\	-ti-	4b\	-ti-	4dd\	-ti-	4e\	4e\
.	.	.	16gg#X\	.	.	.	.	.	.	.	.	.	.	.
8E\J	.	.	16ee\	.	.	.	.	.	.	.	.	.	.	.
.	.	.	16dd\JJ	.	.	.	.	.	.	.	.	.	.	.
8A\L	.	.	16cc#\LL	.	4A\	-o	4e\	-o	4a\	-o	4cc#\	-o	4A/	4e\
.	.	.	16dd\	.	.	.	.	.	.	.	.	.	.	.
8A\	.	.	16ee\	.	.	.	.	.	.	.	.	.	.	.
.	.	.	16cc#\JJ	.	.	.	.	.	.	.	.	.	.	.
!	!	!	!	!	!	!	!	!	!LO:TX:a:t=P:problem=skreślone słowo "in"	!	!	!	!	!
8c#\	6 x	.	16a\LL	.	(>4c#\	e-	4e\	e-	8a\L	e-	(>4ee\	e-	4r	4r
.	.	.	16cc#\	.	.	.	.	.	.	.	.	.	.	.
8c#\J	.	.	16ee\	.	.	.	.	.	(>8gn\J	.	.	.	.	.
.	.	.	16ggn\JJ	.	.	.	.	.	.	.	.	.	.	.
!	!	!	!	!	!	!	!LO:LB:g=original	!	!	!	!	!	!	!
=16	=16	=16	=16	=16	=16	=16	=16	=16	=16	=16	=16	=16	=16	=16
8d\L	.	.	8ff#\L	.	4d\)	.	4d\	.	4f#\)	.	4dd\)	.	2r	2r
8d\	.	.	16ff#\L	.	.	.	.	.	.	.	.	.	.	.
.	.	.	16aa\JJ	.	.	.	.	.	.	.	.	.	.	.
8B\	6 3	.	16gg#X\LL	.	4B\	-jus	4e\	-jus	4g#X\	-jus	4dd\	-jus	.	.
.	.	.	16ee\	.	.	.	.	.	.	.	.	.	.	.
8B\J	.	.	16bb\	.	.	.	.	.	.	.	.	.	.	.
.	.	.	16gg#\JJ	.	.	.	.	.	.	.	.	.	.	.
*tremolo	*	*	*	*	*	*	*	*	*	*	*	*	*	*
!	!	!	!LO:LB:g=original	!	!	!	!	!	!	!	!LO:LB:g=original	!	!	!
8c#\L	6 x	.	16aa\LL	.	4c#\	in	4e\	in	4a\	in	4cc#\	in	4r	4r
.	.	.	16ee\	.	.	.	.	.	.	.	.	.	.	.
8c#\	.	.	16cc#\	.	.	.	.	.	.	.	.	.	.	.
.	.	.	16ee\JJ	.	.	.	.	.	.	.	.	.	.	.
8c#\	.	.	16dd\LL	.	4c#\	id-	4e\	id-	4a\	id-	4ee\	id-	4A/	4e\
.	.	.	16cc#\	.	.	.	.	.	.	.	.	.	.	.
8c#\J	.	.	16b\	.	.	.	.	.	.	.	.	.	.	.
.	.	.	16a\JJ	.	.	.	.	.	.	.	.	.	.	.
*Xtremolo	*	*	*	*	*	*	*	*	*	*	*	*	*	*
!	!	!	!	!	!	!	!	!	!LO:LB:g=original	!	!	!	!	!
=17	=17	=17	=17	=17	=17	=17	=17	=17	=17	=17	=17	=17	=17	=17
8d\L	6 x	.	8f#/L	.	4d\	-ip-	4f#\	-ip-	(4b\	-ip-	4dd\	-ip-	4d\	4f#\
!	!	!	!LO:TUP:abproblem:klamra łukowa	!	!	!	!	!	!	!	!	!	!	!
8d\	.	.	24f#/L	.	.	.	.	.	.	.	.	.	.	.
.	.	.	24e/	.	.	.	.	.	.	.	.	.	.	.
.	.	.	24d/JJ	.	.	.	.	.	.	.	.	.	.	.
8e\	4 x	.	8c#/L	.	8e\L	.	4e\	.	8a\L)	.	8cc#\L	.	4e\	4e\
8E\J	# x	.	8B/J	.	8E\J	.	.	.	8g#X\J	.	8b\J	.	.	.
4A\	.	.	4c#/	.	4A\	-ſum	4e\	-ſum	4a\	-ſum	4cc#\	-ſum	4A/	4e\
!LO:TX:a:i:t=Solo&colon;	!	!	!	!	!	!	!	!	!	!	!	!	!	!
8r	.	.	8r	.	4r	.	4r	.	4r	.	4r	.	4r	4r
8c#\	.	.	8a/	.	.	.	.	.	.	.	.	.	.	.
!	!	!	!	!	!	!	!	!	!	!	!	!	!LO:LB:g=original	!LO:LB:g=original
=18	=18	=18	=18	=18	=18	=18	=18	=18	=18	=18	=18	=18	=18	=18
!	!	!	!	!	!LO:TX:a:t=10.	!	!	!	!	!	!LO:TX:a:t=1.	!	!	!
8B\L	6 3	.	8a/L	.	00r	.	00r	.	1r	.	1r	.	2r	2r
8E\	.	.	8g#X/	.	.	.	.	.	.	.	.	.	.	.
8A\	.	.	8a/	.	.	.	.	.	.	.	.	.	.	.
8c#\J	.	.	8a/J	.	.	.	.	.	.	.	.	.	.	.
8d\L	6 x	.	8b\L	.	.	.	.	.	.	.	.	.	8r	8r
*	*	*	*Xtuplet	*	*	*	*	*	*	*	*	*	*	*
8d\	.	.	24dd\L	.	.	.	.	.	.	.	.	.	8d\L	8f#\L
.	.	.	24cc#\	.	.	.	.	.	.	.	.	.	.	.
.	.	.	24b\JJ	.	.	.	.	.	.	.	.	.	.	.
8e\	4 x	.	8a/L	.	.	.	.	.	.	.	.	.	8e\	8e\
8E\J	# x	.	8g#/J	.	.	.	.	.	.	.	.	.	8e\J	8e\J
=19	=19	=19	=19	=19	=19-	=19	=19-	=19	=19	=19	=19	=19	=19	=19
!	!	!	!	!LO:DY:a:t=p&colon;	!	!	!	!	!LO:TX:b:i:t=Solo&colon;	!	!LO:TX:b:i:t=Solo	!	!	!
4A\	.	.	8a/L	p	.	.	.	.	4.a\	il-	4.cc#\	il-	4A/	4e\
.	.	.	8A/	.	.	.	.	.	.	.	.	.	.	.
4r	.	.	8A/	.	.	.	.	.	.	.	.	.	4r	4r
.	.	.	8A/J	.	.	.	.	.	8b\	-luc	8dd\	-luc	.	.
*	*	*	*tremolo	*	*	*	*	*	*	*	*	*	*	*
2r	.	.	8A/L	.	.	.	.	.	4.cc#\	e-	4.ee\	e-	2r	2r
.	.	.	8A/	.	.	.	.	.	.	.	.	.	.	.
.	.	.	8A/	.	.	.	.	.	.	.	.	.	.	.
.	.	.	8A/J	.	.	.	.	.	16dd\LL	.	16ff#\LL	.	.	.
.	.	.	.	.	.	.	.	.	16b\JJ	.	16dd\JJ	.	.	.
=20	=20	=20	=20	=20	=20-	=20	=20-	=20	=20	=20	=20	=20	=20	=20
!	!	!	!LO:TX:a:t=20:color=gray	!	!	!	!	!	!	!	!	!	!	!
00r	.	.	8A/L	.	.	.	.	.	8a\	-nim	8cc#\	-nim	00r	00r
.	.	.	8A/	.	.	.	.	.	16a\LL	aſ-	16cc#\LL	aſ-	.	.
.	.	.	.	.	.	.	.	.	16g#X\JJ	.	16b\JJ	.	.	.
.	.	.	8A/	.	.	.	.	.	8a\	-cen-	8cc#\	-cen-	.	.
.	.	.	8A/J	.	.	.	.	.	8b\	-de-	8dd\	-de-	.	.
.	.	.	8A/L	.	.	.	.	.	4.cc#\	.	4.ee\	.	.	.
.	.	.	8A/	.	.	.	.	.	.	.	.	.	.	.
.	.	.	8A/	.	.	.	.	.	.	.	.	.	.	.
.	.	.	8A/J	.	.	.	.	.	16dd\LL	.	16ff#\LL	.	.	.
.	.	.	.	.	.	.	.	.	16b\JJ	.	16dd\JJ	.	.	.
!	!	!	!	!	!	!	!	!	!	!	!LO:LB:g=original	!	!	!
=21-	=21	=21	=21	=21	=21-	=21	=21-	=21	=21	=21	=21	=21	=21-	=21-
.	.	.	8A/L	.	.	.	.	.	8a\	-runt	8cc#\	-runt	.	.
!	!	!	!	!	!	!	!	!	!LO:LB:g=original	!	!	!	!	!
.	.	.	8A/	.	.	.	.	.	8a\L	tri-	8cc#\L	tri-	.	.
.	.	.	8A/	.	.	.	.	.	8b\	.	8dd\	.	.	.
.	.	.	8A/J	.	.	.	.	.	8cc#\J	.	8ee\J	.	.	.
!	!	!	!LO:TX:b:t=Verte	!	!	!	!	!	!	!	!	!	!	!
.	.	.	8A/L	.	.	.	.	.	4.dd\	.	4.ff#\	.	.	.
.	.	.	8A/	.	.	.	.	.	.	.	.	.	.	.
.	.	.	8A/	.	.	.	.	.	.	.	.	.	.	.
.	.	.	8A/J	.	.	.	.	.	8cc#\	-bus	8ee\	-bus	.	.
*	*	*	*Xtremolo	*	*	*	*	*	*	*	*	*	*	*
!	!	!	!LO:PB:g=original	!	!	!	!	!	!	!	!	!	!	!
=22-	=22	=22	=22	=22	=22-	=22	=22-	=22	=22	=22	=22	=22	=22-	=22-
*	*	*	*	*	*	*	*	*	*	*ij	*	*ij	*	*
.	.	.	8d/L	.	00r	.	00r	.	8cc#\L	tri-	8ee\L	tri-	.	.
.	.	.	8d/	.	.	.	.	.	8b\J	.	8dd\J	.	.	.
.	.	.	8d/	.	.	.	.	.	8b\L	-bus	8dd\L	-bus	.	.
.	.	.	8d#X/J	.	.	.	.	.	8a\J	.	8cc#\J	.	.	.
*	*	*	*	*	*	*	*	*	*	*Xij	*	*Xij	*	*
.	.	.	8e/L	.	.	.	.	.	8.a\	Do-	8.cc#\	Do-	.	.
.	.	.	16e/L	.	.	.	.	.	.	.	.	.	.	.
.	.	.	16d#/JJ	.	.	.	.	.	16a\	-mi-	16cc#\	-mi-	.	.
.	.	.	16e/LL	.	.	.	.	.	8g#X\	-ni	8b\	-ni	.	.
.	.	.	16g#X/	.	.	.	.	.	.	.	.	.	.	.
.	.	.	16b/	.	.	.	.	.	8r	.	8r	.	.	.
.	.	.	16g#/JJ	.	.	.	.	.	.	.	.	.	.	.
=23-	=23	=23	=23	=23	=23-	=23	=23-	=23	=23	=23	=23	=23	=23-	=23-
.	.	.	4e/	.	.	.	.	.	8r	.	8r	.	.	.
.	.	.	.	.	.	.	.	.	8g#X\L	Teſ-	8b\L	teſ-	.	.
.	.	.	8r	.	.	.	.	.	8a\J	.	8cc#\J	.	.	.
.	.	.	8e/	.	.	.	.	.	8b\	-ti-	8dd\	-ti-	.	.
.	.	.	8a/L	.	.	.	.	.	4.cc#\	-mo-	4.ee\	-mo-	.	.
.	.	.	16a/L	.	.	.	.	.	.	.	.	.	.	.
.	.	.	16g#X/JJ	.	.	.	.	.	.	.	.	.	.	.
.	.	.	8a/L	.	.	.	.	.	.	.	.	.	.	.
.	.	.	8A/J	.	.	.	.	.	16b\LL	-ni-	16dd\LL	-ni-	.	.
.	.	.	.	.	.	.	.	.	16a\JJ	.	16cc#\JJ	.	.	.
=24-	=24	=24	=24	=24	=24-	=24	=24-	=24	=24	=24	=24	=24	=24-	=24-
0r	.	.	4e/	.	.	.	.	.	8g#X\	-um	8b\	-um	00r	00r
!	!	!	!	!	!	!	!	!	!LO:LB:g=original	!	!LO:LB:g=original	!	!	!
.	.	.	.	.	.	.	.	.	8g#X\L	Is-	8b\L	Is-	.	.
.	.	.	8r	.	.	.	.	.	8a\	.	8cc#\	.	.	.
.	.	.	8e/	.	.	.	.	.	8b\J	.	8dd\J	.	.	.
.	.	.	8a/L	.	.	.	.	.	4.cc#\	.	4.ee\	.	.	.
.	.	.	16a/L	.	.	.	.	.	.	.	.	.	.	.
!	!	!	!LO:SIC:v:s:t=16g#	!	!	!	!	!	!	!	!	!	!	!
.	.	.	16g/JJ	.	.	.	.	.	.	.	.	.	.	.
.	.	.	8a/L	.	.	.	.	.	.	.	.	.	.	.
.	.	.	8A/J	.	.	.	.	.	16b\LL	-ra-	16dd\LL	-ra-	.	.
.	.	.	.	.	.	.	.	.	16a\JJ	.	16cc#\JJ	.	.	.
=25-	=25	=25	=25	=25	=25-	=25	=25-	=25	=25	=25	=25	=25	=25-	=25-
.	.	.	4e/	.	.	.	.	.	8g#X\	-el	8b\	-el	.	.
.	.	.	.	.	.	.	.	.	16g#\LL	ad	16b\LL	ad	.	.
.	.	.	.	.	.	.	.	.	16a\JJ	.	16cc#\JJ	.	.	.
.	.	.	8r	.	.	.	.	.	8b\	Con-	8dd\	Con-	.	.
.	.	.	8g#X/	.	.	.	.	.	8b\	-fi-	8dd\	-fi-	.	.
.	.	.	8a/L	.	.	.	.	.	8.b\L	-ten-	8.dd\L	-ten-	.	.
.	.	.	8a/	.	.	.	.	.	.	.	.	.	.	.
.	.	.	.	.	.	.	.	.	32cc#\LL	.	32ee\LL	.	.	.
.	.	.	.	.	.	.	.	.	32b\JJJ	.	32dd\JJJ	.	.	.
.	.	.	8A/	.	.	.	.	.	8a\	-dum	8cc#\	-dum	.	.
.	.	.	8a/J	.	.	.	.	.	8cc#\	no-	8ee\	no-	.	.
!	!	!	!LO:LB:g=original	!	!	!	!	!	!	!	!	!	!	!
=26-	=26	=26	=26	=26	=26-	=26	=26-	=26	=26	=26	=26	=26	=26-	=26-
*	*	*	*tremolo	*	*	*	*	*	*	*	*	*	*	*
1r	.	.	8g#X/L	.	0r	.	0r	.	4dd\	.	4ff#\	.	.	.
.	.	.	8g#X/	.	.	.	.	.	.	.	.	.	.	.
.	.	.	8g#X/	.	.	.	.	.	8cc#\L	.	8ee\L	.	.	.
.	.	.	8g#X/J	.	.	.	.	.	8b\J	.	8dd\J	.	.	.
.	.	.	8a/L	.	.	.	.	.	16a\LL	.	16cc#\LL	.	.	.
.	.	.	.	.	.	.	.	.	16g#X\	.	16b\	.	.	.
.	.	.	8a/	.	.	.	.	.	16a\	.	16cc#\	.	.	.
.	.	.	.	.	.	.	.	.	16b\JJ	.	16dd\JJ	.	.	.
!	!	!	!	!	!	!	!	!	!	!	!LO:LB:g=original	!	!	!
.	.	.	8a/	.	.	.	.	.	8cc#\	-mi-	8ee\	-mi-	.	.
.	.	.	8a/J	.	.	.	.	.	8cc#\	-ni	8ee\	-ni	.	.
*	*	*	*Xtremolo	*	*	*	*	*	*	*	*	*	*	*
!LO:LB:g=original	!	!	!	!	!	!	!	!	!LO:LB:g=original	!	!	!	!	!
=27	=27	=27	=27	=27	=27-	=27	=27	=27	=27	=27	=27	=27	=27-	=27-
!	!	!LO:DY:a:rj:t=p&colon;	!	!	!	!	!	!	!	!	!	!	!	!
8r	.	p	8d/L	.	.	.	.	.	8b\L	Do-	8dd\L	Do-	.	.
!!mixed beam:problem
!LO:TX:t=P:problem=mixed beam	!	!	!	!	!	!	!	!	!	!	!	!	!	!
8D\L	6 x	.	8b/	.	.	.	.	.	16dd\L	.	16ff#\L	.	.	.
.	.	.	.	.	.	.	.	.	16b\JJ	.	16dd\JJ	.	.	.
8E\	4 x	.	8a/	.	.	.	.	.	8a\	.	8cc#\	.	.	.
8EE/J	# x	.	8g#X/J	.	.	.	.	.	8g#X\	-mi-	8b\	-mi-	.	.
!	!	!	!	!LO:DY:a:rj:t=f&colon;	!	!	!	!	!	!	!	!	!	!
4AA/	.	.	8a\L	f	.	.	.	.	4a\	-ni	4cc#\	-ni	.	.
.	.	.	(>32cc#\LL	.	.	.	.	.	.	.	.	.	.	.
.	.	.	32b\	.	.	.	.	.	.	.	.	.	.	.
.	.	.	32cc#\	.	.	.	.	.	.	.	.	.	.	.
.	.	.	32dd\JJJ)	.	.	.	.	.	.	.	.	.	.	.
4r	.	.	16cc#\LL	.	.	.	.	.	4r	.	4r	.	.	.
.	.	.	16a\	.	.	.	.	.	.	.	.	.	.	.
.	.	.	16ee\	.	.	.	.	.	.	.	.	.	.	.
.	.	.	16cc#\JJ	.	.	.	.	.	.	.	.	.	.	.
!	!	!	!	!	!LO:LB:g=original	!	!	!	!	!	!	!	!	!
=28	=28	=28	=28	=28	=28	=28	=28	=28	=28	=28	=28	=28	=28	=28
!LO:TX:a:i:t=tutti	!	!	!	!	!	!	!	!	!	!	!	!	!	!
8r	.	.	4aa\	.	8r	.	8r	.	8r	.	8r	.	8r	8r
8A\L	3: x	.	.	.	4A\	qu-	4A\	qu-	4e\	qu-	4cc#\	qu-	8A/L	8e\L
8A\	.	.	4r	.	.	.	.	.	.	.	.	.	8A/	8e\
8A\J	.	.	.	.	8A\	-ia	8A\	-ia	8e\	-ia	8cc#\	-ia	8A/J	8e\J
4Gn\	.	.	8r	.	4Gn\	il-	4A\	il-	4e\	il-	4cc#\	il-	4A/	4e\
.	.	.	(32cc#\LLL	.	.	.	.	.	.	.	.	.	.	.
.	.	.	32b\	.	.	.	.	.	.	.	.	.	.	.
.	.	.	32cc#\	.	.	.	.	.	.	.	.	.	.	.
.	.	.	32dd\JJJ)	.	.	.	.	.	.	.	.	.	.	.
4G\	.	.	16cc#\LL	.	4G\	-lis	4A\	-lic	4e\	-lic	4cc#\	-lic	4A/	4e\
.	.	.	16a\	.	.	.	.	.	.	.	.	.	.	.
.	.	.	16ee\	.	.	.	.	.	.	.	.	.	.	.
.	.	.	16cc#\JJ	.	.	.	.	.	.	.	.	.	.	.
=29	=29	=29	=29	=29	=29	=29	=29	=29	=29	=29	=29	=29	=29	=29
8r	.	.	4aa\	.	8r	.	8r	.	8r	.	8r	.	8r	8r
*	*	*	*	*	*	*ij	*	*ij	*	*ij	*	*ij	*	*
8G\L	.	.	.	.	4G\	qu-	4A\	qu-	4e\	qu-	4cc#\	qu-	8A/L	8e\L
8G\	.	.	4r	.	.	.	.	.	.	.	.	.	8A/	8e\
8G\J	.	.	.	.	8G\	-ia	8A\	-ia	8e\	-ia	8cc#\	-ia	8A/J	8e\J
4F#\	6: x	.	8r	.	4F#\	il-	4A\	il-	4f#\	il-	4dd\	il-	4d\	4f#\
.	.	.	(>32dd\LLL	.	.	.	.	.	.	.	.	.	.	.
.	.	.	32cc#\	.	.	.	.	.	.	.	.	.	.	.
.	.	.	32dd\	.	.	.	.	.	.	.	.	.	.	.
.	.	.	32ee\JJJ)	.	.	.	.	.	.	.	.	.	.	.
4F#\	.	.	16dd\LL	.	4F#\	-lis	4A\	-lic	4f#\	-lic	4dd\	-lic	4d\	4f#\
.	.	.	16a\	.	.	.	.	.	.	.	.	.	.	.
.	.	.	16ff#\	.	.	.	.	.	.	.	.	.	.	.
.	.	.	16dd\JJ	.	.	.	.	.	.	.	.	.	.	.
*	*	*	*	*	*	*Xij	*	*Xij	*	*Xij	*	*Xij	*	*
!	!	!	!	!	!	!	!LO:LB:g=original	!	!	!	!LO:LB:g=original	!	!	!
=30	=30	=30	=30	=30	=30	=30	=30	=30	=30	=30	=30	=30	=30	=30
8r	.	.	4aa\	.	8r	.	8r	.	8r	.	8r	.	8r	8r
8F#\L	.	.	.	.	8F#\	ſe-	8A\	ſe-	8f#\	ſe-	8dd\	ſe-	8d\L	8f#\L
!	!	!	!LO:LB:g=original	!	!	!	!	!	!	!	!	!	!	!
8F#\	.	.	4r	.	8F#\	-de-	8A\	-de-	8f#\	-de-	8dd\	-de-	8d\	8f#\
8F#\J	.	.	.	.	8F#\	-runt	8A\	-runt	8f#\	-runt	8dd\	-runt	8d\J	8f#\J
!	!	!	!	!	!	!	!	!	!LO:LB:g=original	!	!	!	!	!
4C#/	6 5	.	8r	.	4C#/	ſe-	4A\	ſe-	4g\	ſe-	4ee\	ſe-	4e\	4g\
.	.	.	(>32ee\LLL	.	.	.	.	.	.	.	.	.	.	.
.	.	.	32dd\	.	.	.	.	.	.	.	.	.	.	.
.	.	.	32ee\	.	.	.	.	.	.	.	.	.	.	.
.	.	.	32ff#\JJJ)	.	.	.	.	.	.	.	.	.	.	.
!	!	!	!LO:TX:a:t=30:color=gray	!	!	!	!	!	!	!	!	!	!	!
4C#/	.	.	16gg\LL	.	4C#/	-des	4A\	-des	4g\	-des	4ee\	-des	4e\	4g\
.	.	.	16ee\	.	.	.	.	.	.	.	.	.	.	.
.	.	.	16aa\	.	.	.	.	.	.	.	.	.	.	.
.	.	.	16gg\JJ	.	.	.	.	.	.	.	.	.	.	.
!	!	!	!	!	!	!	!	!	!	!	!	!	!LO:LB:g=original	!
=31	=31	=31	=31	=31	=31	=31	=31	=31	=31	=31	=31	=31	=31	=31
8D\L	.	.	16gg\LL	.	8D\	in	8A\	in	8f#\	in	8dd\	in	4d\	4f#\
.	.	.	16ff#\	.	.	.	.	.	.	.	.	.	.	.
8D\	.	.	16bb\	.	8D\	Ju-	8A\	Ju-	8f#\	Ju-	8dd\	Ju-	.	.
.	.	.	16aa\JJ	.	.	.	.	.	.	.	.	.	.	.
8C#\	6 5	.	16aa\LL	.	8C#\	-di-	8A\	-di-	8g\	-di-	8ee\	-di-	8e\L	8g\L
.	.	.	16gg\	.	.	.	.	.	.	.	.	.	.	.
8D\J	.	.	16gg\	.	8D\	-ci-	8A\	-ci-	8f#\	-ci-	8dd\	-ci-	8d\J	8f#\J
.	.	.	16ff#\JJ	.	.	.	.	.	.	.	.	.	.	.
!	!	!	!	!	!	!	!	!	!	!	!	!	!	!LO:LB:g=original
4A\	.	.	16ff#\LL	.	4A\	-o	4A\	-o	4e\	-o	4cc#\	-o	4A/	4e\
.	.	.	16ee\	.	.	.	.	.	.	.	.	.	.	.
.	.	.	16ee\	.	.	.	.	.	.	.	.	.	.	.
.	.	.	16gg\JJ	.	.	.	.	.	.	.	.	.	.	.
4r	.	.	16gg\LL	.	4r	.	4r	.	4r	.	4r	.	4r	4r
.	.	.	16ff#\	.	.	.	.	.	.	.	.	.	.	.
.	.	.	16ee\	.	.	.	.	.	.	.	.	.	.	.
.	.	.	16dd\JJ	.	.	.	.	.	.	.	.	.	.	.
!	!	!	!	!	!LO:PB:g=original	!	!	!	!	!	!	!	!	!
=32	=32	=32	=32	=32	=32	=32	=32	=32	=32	=32	=32	=32	=32	=32
8A\L	.	.	16cc#\LL	.	4A\	ſe-	4A\	ſe-	4g\	ſe-	4ee\	ſe-	2A/	2e\
.	.	.	16a\	.	.	.	.	.	.	.	.	.	.	.
8A\	.	.	16cc#\	.	.	.	.	.	.	.	.	.	.	.
.	.	.	16ee\JJ	.	.	.	.	.	.	.	.	.	.	.
8B\	.	.	16aa\LL	.	8B\L	-des	4A\	-des	4g\	-des	4ee\	-des	.	.
.	.	.	16gg\	.	.	.	.	.	.	.	.	.	.	.
8c#\J	.	.	16ee\	.	8c#\J	.	.	.	.	.	.	.	.	.
.	.	.	16gg\JJ	.	.	.	.	.	.	.	.	.	.	.
8d\L	.	.	16gg\LL	.	8d\	ſu-	8A\	ſu-	8f#\	ſu-	8dd\	ſu-	4d\	4f#\
.	.	.	16ff#\	.	.	.	.	.	.	.	.	.	.	.
8D\J	.	.	16ff#\	.	8D\	-per	8A\	-per	8f#\	-per	8dd\	-per	.	.
.	.	.	16aa\JJ	.	.	.	.	.	.	.	.	.	.	.
4r	.	.	16gg\LL	.	4r	.	4r	.	4r	.	4r	.	4r	4r
.	.	.	16ff#\	.	.	.	.	.	.	.	.	.	.	.
.	.	.	16ee\	.	.	.	.	.	.	.	.	.	.	.
.	.	.	16dd\JJ	.	.	.	.	.	.	.	.	.	.	.
!LO:LB:g=original	!	!	!	!	!	!	!	!	!	!	!LO:LB:g=original	!	!	!
=33	=33	=33	=33	=33	=33	=33	=33	=33	=33	=33	=33	=33	=33	=33
*	*	*	*	*	*	*ij	*	*	*	*ij	*	*	*	*
8A\L	4: x	.	16cc#\LL	.	4A\	ſe-	4A\	ſe-	4g\	ſe-	4ee\	ſe-	2A/	2e\
.	.	.	16a\	.	.	.	.	.	.	.	.	.	.	.
8A\	.	.	16cc#\	.	.	.	.	.	.	.	.	.	.	.
.	.	.	16ee\JJ	.	.	.	.	.	.	.	.	.	.	.
!	!	!	!LO:LB:g=original	!	!	!	!	!	!	!	!	!	!	!
8B\	.	.	16aa\LL	.	8B\L	-des	4A\	-des	4g\	-des	4ee\	-des	.	.
.	.	.	16gg\	.	.	.	.	.	.	.	.	.	.	.
8c#\J	.	.	16ee\	.	8c#\J	.	.	.	.	.	.	.	.	.
.	.	.	16gg\JJ	.	.	.	.	.	.	.	.	.	.	.
!	!	!	!	!	!	!	!LO:LB:g=original	!	!	!	!	!	!	!
8d\L	.	.	16gg\LL	.	8d\	ſu-	8A\	ſu-	8f#\	ſu-	8dd\	ſu-	4d\	4f#\
.	.	.	16ff#\	.	.	.	.	.	.	.	.	.	.	.
8D\J	.	.	16ff#\	.	8D\	-per	8A\	-per	8f#\	-per	8dd\	-per	.	.
.	.	.	16aa\JJ	.	.	.	.	.	.	.	.	.	.	.
*	*	*	*	*	*	*	*	*	*	*Xij	*	*	*	*
4r	.	.	16gg\LL	.	4r	.	4r	.	4r	.	4r	.	4r	4r
.	.	.	16ff#\	.	.	.	.	.	.	.	.	.	.	.
.	.	.	16ee\	.	.	.	.	.	.	.	.	.	.	.
.	.	.	16dd\JJ	.	.	.	.	.	.	.	.	.	.	.
!	!	!	!	!	!	!	!	!	!LO:LB:g=original	!	!	!	!	!
=34	=34	=34	=34	=34	=34	=34	=34	=34	=34	=34	=34	=34	=34	=34
*	*	*	*	*	*	*	*	*	*	*	*	*ij	*	*
8A\L	3: x	.	16cc#\LL	.	(>4A\	ſe-	4A\	ſe-	4e\	ſe-	4cc#\	ſe-	2A/	2e\
.	.	.	16a\	.	.	.	.	.	.	.	.	.	.	.
8A\	.	.	16cc#\	.	.	.	.	.	.	.	.	.	.	.
.	.	.	16ee\JJ	.	.	.	.	.	.	.	.	.	.	.
8G\	.	.	16dd\LL	.	4G\)	-des	4A\	-des	4e\	-des	4cc#\	-des	.	.
.	.	.	16cc#\	.	.	.	.	.	.	.	.	.	.	.
8G\J	.	.	16b\	.	.	.	.	.	.	.	.	.	.	.
.	.	.	16cc#\JJ	.	.	.	.	.	.	.	.	.	.	.
8F#\L	6 x	.	16dd\LL	.	(>4F#\	ſu-	4A\	ſu-	4f#\	ſu-	4dd\	ſu-	4d\	4f#\
.	.	.	16a\	.	.	.	.	.	.	.	.	.	.	.
8F#\	.	.	16ff#\	.	.	.	.	.	.	.	.	.	.	.
.	.	.	16dd\JJ	.	.	.	.	.	.	.	.	.	.	.
8G\	4: 2:	.	16cc#\LL	.	4G\)	-per	4A\	-per	4e\	-per	4cc#\	-per	4A/	4e\
*	*	*	*	*	*	*Xij	*	*	*	*	*	*Xij	*	*
.	.	.	16dd\	.	.	.	.	.	.	.	.	.	.	.
8G\J	.	.	16ee\	.	.	.	.	.	.	.	.	.	.	.
.	.	.	16cc#\JJ	.	.	.	.	.	.	.	.	.	.	.
=35	=35	=35	=35	=35	=35	=35	=35	=35	=35	=35	=35	=35	=35	=35
!LO:SIC:v:s:t=8F#	!	!	!	!	!	!	!	!	!	!	!	!	!	!
8E\L	6 X	.	16dd\LL	.	4F#\	Do-	4A\	Do-	4f#\	Do-	4dd\	Do-	4d\	4f#\
.	.	.	16a\	.	.	.	.	.	.	.	.	.	.	.
8F#\	.	.	16ff#\	.	.	.	.	.	.	.	.	.	.	.
.	.	.	16dd\JJ	.	.	.	.	.	.	.	.	.	.	.
8G\	4: 2:	.	16cc#\LL	.	4G\	-mum	4A\	-mum	4e\	-mum	4cc#\	-mum	4A/	4e\
.	.	.	16dd\	.	.	.	.	.	.	.	.	.	.	.
8G\J	.	.	16ee\	.	.	.	.	.	.	.	.	.	.	.
.	.	.	16cc#\JJ	.	.	.	.	.	.	.	.	.	.	.
*	*	*	*	*	*	*	*	*ij	*	*	*	*	*	*
!!mixed beam:problem
!LO:TX:t=P:problem=mixed beam	!	!	!	!	!LO:TX:t=P:problem=mixed beam	!	!	!	!	!	!	!	!	!
8F#\L	6 X	.	8a/L	.	8F#\L	Da-	8A\	Do-	8f#\L	Da-	8dd\L	da-	8d\L	8f#\L
8G\	6 x	.	16b/L	.	8G\	.	8B\	-mum	8g\	.	8ee\	.	8e\	8g\
.	.	.	16g/JJ	.	.	.	.	.	.	.	.	.	.	.
*	*	*	*	*	*	*	*	*Xij	*	*	*	*	*	*
8A\	4 x	.	8f#/L	.	8A\	.	4A\	Da-	8f#\	.	8dd\	.	8d\	8f#\
8AA/J	3 x	.	8e/J	.	8AA/J	.	.	.	8e\J	.	8cc#\J	.	8A\J	8e\J
!	!	!	!	!	!LO:LB:g=original	!	!	!	!	!	!	!	!	!
=36	=36	=36	=36	=36	=36	=36	=36	=36	=36	=36	=36	=36	=36	=36
4D\	.	.	4f#/	.	4D\	-vid	4A\	-vid	4f#\	-vid	4dd\	-vid	4F#/	4d\
4r	.	.	4r	.	4r	.	4r	.	4r	.	4r	.	4r	4r
!	!	!	!LO:LB:g=original	!	!	!	!	!	!	!	!	!	!	!
2r	.	.	8r	.	2r	.	2r	.	2r	.	2r	.	2r	2r
!	!	!	!	!LO:DY:a:t=p&colon;	!	!	!	!	!	!	!	!	!	!
.	.	.	16d/LL	p	.	.	.	.	.	.	.	.	.	.
.	.	.	16e/JJ	.	.	.	.	.	.	.	.	.	.	.
.	.	.	8d/L	.	.	.	.	.	.	.	.	.	.	.
.	.	.	8c#/J	.	.	.	.	.	.	.	.	.	.	.
=37	=37	=37	=37	=37	=37	=37	=37	=37	=37	=37	=37	=37	=37	=37
!	!	!	!	!	!	!	!LO:TX:a:t=3.	!	!LO:TX:a:t=3	!	!	!	!	!
0r	.	.	8c#/L	.	00r	.	0r	.	0r	.	00r	.	00r	00r
.	.	.	8B/J	.	.	.	.	.	.	.	.	.	.	.
.	.	.	4B/	.	.	.	.	.	.	.	.	.	.	.
.	.	.	8r	.	.	.	.	.	.	.	.	.	.	.
.	.	.	16B/LL	.	.	.	.	.	.	.	.	.	.	.
.	.	.	16c#/JJ	.	.	.	.	.	.	.	.	.	.	.
.	.	.	8B/L	.	.	.	.	.	.	.	.	.	.	.
.	.	.	8A/J	.	.	.	.	.	.	.	.	.	.	.
=38-	=38	=38	=38	=38	=38-	=38	=38-	=38	=38-	=38	=38-	=38	=38-	=38-
.	.	.	4.G/	.	.	.	.	.	.	.	.	.	.	.
.	.	.	8G#X/	.	.	.	.	.	.	.	.	.	.	.
.	.	.	8A/L	.	.	.	.	.	.	.	.	.	.	.
.	.	.	16a/L	.	.	.	.	.	.	.	.	.	.	.
.	.	.	16gn/JJ	.	.	.	.	.	.	.	.	.	.	.
.	.	.	8f#/L	.	.	.	.	.	.	.	.	.	.	.
.	.	.	8c#/J	.	.	.	.	.	.	.	.	.	.	.
=39	=39	=39	=39	=39	=39-	=39	=39-	=39	=39-	=39	=39-	=39	=39-	=39-
!	!	!LO:DY:a:t=pio&colon;	!	!	!	!	!	!	!	!	!	!	!	!
2r	.	p	8d/L	.	.	.	1r	.	1r	.	.	.	.	.
.	.	.	16d/L	.	.	.	.	.	.	.	.	.	.	.
.	.	.	16c#/JJ	.	.	.	.	.	.	.	.	.	.	.
.	.	.	8d/L	.	.	.	.	.	.	.	.	.	.	.
.	.	.	8d/J	.	.	.	.	.	.	.	.	.	.	.
8r	.	.	8g/L	.	.	.	.	.	.	.	.	.	.	.
!!mixed beam:problem
!LO:TX:t=P:problem=mixed beam	!	!	!	!	!	!	!	!	!	!	!	!	!	!
8G\L	6 x	.	8e/	.	.	.	.	.	.	.	.	.	.	.
8A\	4 x	.	8d/	.	.	.	.	.	.	.	.	.	.	.
8AA/J	3 x	.	8c#/J	.	.	.	.	.	.	.	.	.	.	.
!	!	!	!	!	!	!	!LO:LB:g=original	!	!	!	!	!	!	!
=40	=40	=40	=40	=40	=40-	=40	=40	=40	=40	=40	=40-	=40	=40-	=40-
!	!	!	!	!	!	!	!LO:TX:a:i:t=Solo&colon;	!	!LO:TX:a:i:t=Solo&colon;	!	!	!	!	!
4D\	.	.	4d/	.	.	.	4r	.	4r	.	.	.	.	.
8r	.	.	8r	.	.	.	8r	.	8r	.	.	.	.	.
!	!	!	!LO:TX:a:t=40:color=gray	!	!	!	!	!	!	!	!	!	!	!
8D\	.	.	8d/	.	.	.	8d\	Ro-	8f#\	Ro-	.	.	.	.
4A\	4 x	.	4d/	.	.	.	4d\	-ga-	4f#\	-ga-	.	.	.	.
4AA/	3 x	.	4c#/	.	.	.	8c#\	-te	8e\	-te	.	.	.	.
.	.	.	.	.	.	.	8r	.	8r	.	.	.	.	.
!LO:LB:g=original	!	!	!LO:LB:g=original	!	!	!	!	!	!LO:LB:g=original	!	!	!	!	!
=41	=41	=41	=41	=41	=41-	=41	=41	=41	=41	=41	=41-	=41	=41-	=41-
4r	.	.	4r	.	0r	.	4r	.	4r	.	0r	.	0r	0r
8r	.	.	8r	.	.	.	8r	.	8r	.	.	.	.	.
*	*	*	*	*	*	*	*	*ij	*	*	*	*	*	*
8c#\	6 5	.	8e/	.	.	.	8e\	ro-	8g\	ro-	.	.	.	.
4d\	4 x	.	4e/	.	.	.	4e\	-ga-	4g\	-ga-	.	.	.	.
4D\	3 x	.	4d/	.	.	.	8d\	-te	8f#\	-te	.	.	.	.
*	*	*	*	*	*	*	*	*Xij	*	*	*	*	*	*
!	!	!	!	!	!	!	!	!LO:MO:P=quae	!	!LO:MO:P=quae	!	!	!	!
.	.	.	.	.	.	.	8f#\	que	8a\	que	.	.	.	.
=42	=42	=42	=42	=42	=42-	=42	=42	=42	=42	=42	=42-	=42	=42-	=42-
2C#/	4 x	.	2e/	.	.	.	4g\	ad	4b\	ad	.	.	.	.
.	6 x	.	.	.	.	.	8f#\L	.	8a\L	.	.	.	.	.
.	5 x	.	.	.	.	.	8e\J	.	8g\J	.	.	.	.	.
4D/	.	.	4d/	.	.	.	16d\LL	pa-	16f#\LL	pa-	.	.	.	.
.	.	.	.	.	.	.	16c#\	.	16e\	.	.	.	.	.
.	.	.	.	.	.	.	16d\	.	16f#\	.	.	.	.	.
.	.	.	.	.	.	.	16e\JJ	.	16g\JJ	.	.	.	.	.
4r	.	.	4r	.	.	.	[<4f#\	.	[>4a\	.	.	.	.	.
=43	=43	=43	=43	=43	=43-	=43	=43	=43	=43	=43	=43-	=43	=43-	=43-
8r	.	.	8r	.	1r	.	8f#\]	.	8a\]	.	1r	.	1r	1r
8E\L	.	.	8f#/L	.	.	.	16g\LL	-cem	16b\LL	-cem	.	.	.	.
.	.	.	.	.	.	.	16f#\JJ	.	16a\JJ	.	.	.	.	.
!	!	!	!	!	!	!	!LO:LB:g=original	!	!	!	!	!	!	!
8G\	6 x	.	8e/	.	.	.	8e\	ſunt	8g\	ſunt	.	.	.	.
8G#X\J	5 x	.	8d/J	.	.	.	8d\	Je-	8f#\	Je-	.	.	.	.
!!mixed beam:problem
!LO:TX:t=P:problem=mixed beam	!	!	!	!	!	!	!	!	!	!	!	!	!	!
8A\L	4 x	.	4d/	.	.	.	8.d\	-ru-	8.f#\	-ru-	.	.	.	.
8A\	3 x	.	.	.	.	.	.	.	.	.	.	.	.	.
.	.	.	.	.	.	.	16d\	-ſa-	16f#\	-ſa-	.	.	.	.
8AA/J	.	.	8c#/L	.	.	.	8c#\	-lem	8e\	-lem	.	.	.	.
!	!	!	!	!LO:DY:a:t=f&colon;	!	!	!	!	!	!	!	!	!	!
8r	.	.	(<32A/LL	f	.	.	8r	.	8r	.	.	.	.	.
.	.	.	32B/	.	.	.	.	.	.	.	.	.	.	.
.	.	.	32c#/	.	.	.	.	.	.	.	.	.	.	.
.	.	.	32d/JJJ)	.	.	.	.	.	.	.	.	.	.	.
!	!	!	!	!	!	!	!	!	!LO:LB:g=original	!	!LO:LB:g=original	!	!LO:LB:g=original	!
=44	=44	=44	=44	=44	=44	=44	=44	=44	=44	=44	=44	=44	=44	=44
!LO:TX:a:i:t=tutti	!	!	!	!	!	!	!	!	!	!	!	!	!	!
8r	.	.	16c#/LL	.	8r	.	8r	.	8r	.	8r	.	8r	8r
.	.	.	16A/	.	.	.	.	.	.	.	.	.	.	.
!!mixed beam:problem
!LO:TX:t=P:problem=mixed beam	!	!	!	!	!	!	!	!	!	!	!	!	!	!
8AA/L	.	.	16c#/	.	8AA/	(et)	8A\	(et)	8e\	(et)	8cc#\	(et)	8A/L	8e\L
.	.	.	16e/JJ	.	.	.	.	.	.	.	.	.	.	.
8A\	3: x	.	16d/LL	.	8A\	a-	8A\	a-	8e\	a-	8cc#\	a-	8A/	8e\
.	.	.	16c#/	.	.	.	.	.	.	.	.	.	.	.
8Gn\J	.	.	16B/	.	8Gn\	-bun-	8A\	-bun-	8e\	-bun-	8cc#\	-bun-	8A/J	8e\J
.	.	.	16c#/JJ	.	.	.	.	.	.	.	.	.	.	.
!	!	!	!	!	!	!	!	!	!	!	!	!	!	!LO:LB:g=original
8F#\L	6 x	.	16d/LL	.	8F#\L	-dan-	4.A\	-dan-	8f#\L	-dan-	8dd\L	-dan-	8d\L	8f#\L
.	.	.	16f#/	.	.	.	.	.	.	.	.	.	.	.
8C#\	6 5	.	16a/	.	8C#\J	.	.	.	8g\J	.	8ee\J	.	8e\J	8g\J
.	.	.	16g/JJ	.	.	.	.	.	.	.	.	.	.	.
.	.	.	8qg/	.	.	.	.	.	.	.	.	.	.	.
8D\	.	.	8f#/L	.	8D\	.	.	.	8a\	.	8ff#\	.	4d\	4f#\
8F#\J	6 x	.	16e/L	.	8F#\	ti-	8A\	-ti-	8f#\	-ti-	8dd\	-ti-	.	.
.	.	.	16d/JJ	.	.	.	.	.	.	.	.	.	.	.
=45	=45	=45	=45	=45	=45	=45	=45	=45	=45	=45	=45	=45	=45	=45
!!mixed beam:problem
!LO:TX:t=P:problem=mixed beam	!	!	!	!	!	!	!	!	!	!	!	!	!	!
8A\L	3: x	.	16c#/LL	.	8A\	-a	8A\	-a	8e\	-a	8cc#\	-a	2A/	2e\
.	.	.	16A/	.	.	.	.	.	.	.	.	.	.	.
*	*	*	*	*	*	*ij	*	*	*	*ij	*	*ij	*	*
8AA/	.	.	16c#/	.	8AA/	et	8A\	(et)	8e\	et	8cc#\	et	.	.
.	.	.	16e/JJ	.	.	.	.	.	.	.	.	.	.	.
!	!	!	!LO:LB:g=original	!	!	!	!	!	!	!	!	!	!	!
8A\	.	.	16d/LL	.	8A\	a-	8A\	a-	8e\	a-	8cc#\	a-	.	.
.	.	.	16c#/	.	.	.	.	.	.	.	.	.	.	.
8G\J	.	.	16B/	.	8G\	-bun-	8A\	-bun-	8e\	-bun-	8cc#\	-bun-	.	.
.	.	.	16c#/JJ	.	.	.	.	.	.	.	.	.	.	.
8F#\L	6 x	.	16d/LL	.	8F#\L	-dan-	4.A\	-dan-	8f#\L	-dan-	8dd\L	-dan-	8d\L	8f#\L
.	.	.	16f#/	.	.	.	.	.	.	.	.	.	.	.
8C#\	6 5	.	16a/	.	8C#\J	.	.	.	8g\J	.	(>8ee\J	.	8e\J	8g\J
.	.	.	16g/JJ	.	.	.	.	.	.	.	.	.	.	.
.	.	.	8qg/	.	.	.	.	.	.	.	.	.	.	.
8D\	.	.	8f#/L	.	8D\	.	.	.	8a\	.	8ff#\)	.	4d\	4f#\
8F#\J	6 x	.	16e/L	.	8F#\	-ti-	8A\	-ti-	8f#\	-ti-	8dd\	-ti-	.	.
.	.	.	16d/JJ	.	.	.	.	.	.	.	.	.	.	.
!	!	!	!	!	!	!	!LO:LB:g=original	!	!	!	!	!	!	!
=46	=46	=46	=46	=46	=46	=46	=46	=46	=46	=46	=46	=46	=46	=46
!!mixed beam:problem
!LO:TX:t=P:problem=mixed beam	!	!	!	!	!	!	!	!	!	!	!	!	!	!
8A\L	3: X	.	16c#/LL	.	4A\	-a	4A\	-a	4e\	-a	4cc#\	-a	2A/	2e\
.	.	.	16A/	.	.	.	.	.	.	.	.	.	.	.
8AA/	.	.	16c#/	.	.	.	.	.	.	.	.	.	.	.
.	.	.	16e/JJ	.	.	.	.	.	.	.	.	.	.	.
*	*	*	*	*	*	*Xij	*	*	*	*Xij	*	*Xij	*	*
8A\	.	.	16d/LL	.	8A\	di-	8A\	di-	8e\	di-	8cc#\	di-	.	.
.	.	.	16c#/	.	.	.	.	.	.	.	.	.	.	.
8G\J	.	.	16B/	.	8G\	-li-	8A\	-li-	8e\	-li-	8cc#\	-li-	.	.
.	.	.	16c#/JJ	.	.	.	.	.	.	.	.	.	.	.
!LO:LB:g=original	!	!	!	!	!LO:LB:g=original	!	!	!	!LO:LB:g=original	!	!LO:LB:g=original	!	!	!
8F#\L	6 x	.	16d/LL	.	4F#\	-gen-	4A\	-gen-	4f#\	-gen-	4dd\	-gen-	4d\	4f#\
.	.	.	16e/	.	.	.	.	.	.	.	.	.	.	.
8F#\	.	.	16f#/	.	.	.	.	.	.	.	.	.	.	.
.	.	.	16d/JJ	.	.	.	.	.	.	.	.	.	.	.
8C#\	6 5	.	16e/LL	.	8C#/	-ti-	8A\	-ti-	8g\	-ti-	8ee\	-ti-	4e\	4g\
.	.	.	16f#/	.	.	.	.	.	.	.	.	.	.	.
8C#\J	.	.	16g/	.	8C#/	-bus	8A\	-bus	8g\	-bus	8ee\	-bus	.	.
.	.	.	16e/JJ	.	.	.	.	.	.	.	.	.	.	.
=47	=47	=47	=47	=47	=47	=47	=47	=47	=47	=47	=47	=47	=47	=47
8D\L	.	.	16f#/LL	.	4D\	te	4A\	te	4f#\	te	4dd\	te	2d\	2f#\
.	.	.	16a/	.	.	.	.	.	.	.	.	.	.	.
8D\	.	.	16g/	.	.	.	.	.	.	.	.	.	.	.
.	.	.	16f#/JJ	.	.	.	.	.	.	.	.	.	.	.
*	*	*	*	*	*	*	*	*ij	*	*	*	*	*	*
8B\	.	.	16e/LL	.	8B\	Di-	8B\	di-	8f#\	di-	8dd\	di-	.	.
.	.	.	16d/	.	.	.	.	.	.	.	.	.	.	.
8B\J	.	.	16c#/	.	8B\	-li-	8B\	-li-	8f#\	-li-	8dd\	-li-	.	.
.	.	.	16d/JJ	.	.	.	.	.	.	.	.	.	.	.
!!mixed beam:problem
!LO:TX:t=P:problem=mixed beam	!	!	!	!	!	!	!	!	!	!	!	!	!	!
8G\L	6 x	.	8e/L	.	4G\	-gen-	4B\	-gen-	4g\	-gen-	4ee\	-gen-	4e\	4g\
8G\	.	.	8g/	.	.	.	.	.	.	.	.	.	.	.
8A\	4 x	.	8f#/	.	8A\	-ti-	8A\	-ti-	8f#\	-ti-	8dd\	-ti-	8d\L	8f#\L
8AA/J	x 3	.	8e/J	.	8A\	-bus	8A\	-bus	8e\	-bus	8cc#\	-bus	8A\J	8e\J
=48	=48	=48	=48	=48	=48	=48	=48	=48	=48	=48	=48	=48	=48	=48
*tremolo	*	*	*	*	*	*	*	*	*	*	*	*	*	*
!LO:TX:a:i:t=Solo&colon;	!	!	!	!LO:DY:a:rj:t=p&colon;	!LO:TX:a:i:t=Solo&colon;	!	!	!	!	!	!	!	!	!
8D/L	.	.	8f#/L	p	4D\	te	4A\	te	4f#\	te	4dd\	te	4F#/	4d\
8D/	.	.	8a/	.	.	.	.	.	.	.	.	.	.	.
*	*	*	*	*	*	*	*	*Xij	*	*	*	*	*	*
8D/	.	.	8a/	.	16F#\LL	fi-	4r	.	4r	.	4r	.	4r	4r
.	.	.	.	.	16E\JJ	.	.	.	.	.	.	.	.	.
8D/J	.	.	8a/J	.	16F#\LL	-at	.	.	.	.	.	.	.	.
.	.	.	.	.	16G\JJ	.	.	.	.	.	.	.	.	.
!	!	!	!LO:LB:g=original	!	!	!	!	!	!	!	!	!	!	!
8C#/L	6: 5:	.	8a/L	.	4.A\	pax	2r	.	2r	.	2r	.	2r	2r
8C#/	.	.	8a/	.	.	.	.	.	.	.	.	.	.	.
8C#/	.	.	8a/	.	.	.	.	.	.	.	.	.	.	.
8C#/J	.	.	8a/J	.	8G\	in	.	.	.	.	.	.	.	.
*Xtremolo	*	*	*	*	*	*	*	*	*	*	*	*	*	*
=49	=49	=49	=49	=49	=49	=49	=49	=49	=49	=49	=49	=49	=49	=49
8D\L	.	.	8a/L	.	8.F#\	Vir-	00r	.	00r	.	00r	.	00r	00r
8D\J	.	.	8a/J	.	.	.	.	.	.	.	.	.	.	.
.	.	.	.	.	16E\	-tu-	.	.	.	.	.	.	.	.
8D\L	.	.	8d/L	.	8D\	-te	.	.	.	.	.	.	.	.
(>16E\L	.	.	16e/L	.	16E\LL	in	.	.	.	.	.	.	.	.
16F#\JJ)	.	.	16f#/JJ	.	16F#\JJ	.	.	.	.	.	.	.	.	.
!LO:TX:a:t=|:problem	!	!	!	!	!LO:TX:a:t=|:problem	!	!	!	!	!	!	!	!	!
8G\L	.	.	8g/L	.	8G\L	vir-	.	.	.	.	.	.	.	.
!LO:TX:a:t=|:problem	!	!	!	!	!LO:TX:a:t=|:problem	!	!	!	!	!	!	!	!	!
8F#\	.	.	8f#/	.	8F#\J	.	.	.	.	.	.	.	.	.
!	!	!	!	!	!LO:LB:g=original	!	!	!	!	!	!	!	!	!
!LO:TX:a:t=|:problem	!	!	!	!	!	!	!	!	!	!	!	!	!	!
8E\	.	.	8e/	.	8E\	-tu-	.	.	.	.	.	.	.	.
!LO:TX:a:t=|:problem	!	!	!	!	!	!	!	!	!	!	!	!	!	!
8D\J	.	.	8d/J	.	8D\	-te	.	.	.	.	.	.	.	.
=50	=50	=50	=50	=50	=50	=50	=50-	=50	=50-	=50	=50-	=50	=50-	=50-
!LO:TX:b:t=|:problem	!	!	!	!	!	!	!	!	!	!	!	!	!	!
8C#/L	.	.	8c#/L	.	8C#/L	tu-	.	.	.	.	.	.	.	.
!LO:TX:b:t=|:problem	!	!	!	!	!	!	!	!	!	!	!	!	!	!
8BB/J	.	.	8B/J	.	8BB/J	.	.	.	.	.	.	.	.	.
!LO:TX:b:t=|:problem	!	!	!LO:TX:a:t=50:color=gray	!	!	!	!	!	!	!	!	!	!	!
8AA/L	.	.	8A/L	.	4AA/	-a	.	.	.	.	.	.	.	.
(<16C#/L	.	.	16c#/L	.	.	.	.	.	.	.	.	.	.	.
16E/JJ)	.	.	16e/JJ	.	.	.	.	.	.	.	.	.	.	.
4A\	.	.	4a/	.	8r	.	.	.	.	.	.	.	.	.
.	.	.	.	.	8A\	(et)	.	.	.	.	.	.	.	.
4r	.	.	4r	.	16A\LL	a-	.	.	.	.	.	.	.	.
.	.	.	.	.	16G\JJ	.	.	.	.	.	.	.	.	.
.	.	.	.	.	16F#\LL	-bun-	.	.	.	.	.	.	.	.
.	.	.	.	.	16E\JJ	.	.	.	.	.	.	.	.	.
=51	=51	=51	=51	=51	=51	=51	=51-	=51	=51-	=51	=51-	=51	=51-	=51-
8r	.	.	0r	.	4.F#\	-dan-	.	.	.	.	.	.	.	.
8D\L	.	.	.	.	.	.	.	.	.	.	.	.	.	.
8E\	.	.	.	.	.	.	.	.	.	.	.	.	.	.
8F#\J	.	.	.	.	16G\LL	-ti-	.	.	.	.	.	.	.	.
.	.	.	.	.	16A\JJ	.	.	.	.	.	.	.	.	.
[<2G\	x 3	.	.	.	8B\	-a	.	.	.	.	.	.	.	.
*	*	*	*	*	*	*ij	*	*	*	*	*	*	*	*
.	.	.	.	.	16B\LL	et	.	.	.	.	.	.	.	.
.	.	.	.	.	16A\JJ	.	.	.	.	.	.	.	.	.
.	.	.	.	.	16G\LL	a-	.	.	.	.	.	.	.	.
.	.	.	.	.	16F#\JJ	.	.	.	.	.	.	.	.	.
.	.	.	.	.	16E\LL	-bun-	.	.	.	.	.	.	.	.
.	.	.	.	.	16D\JJ	.	.	.	.	.	.	.	.	.
!LO:LB:g=original	!	!	!	!	!	!	!	!	!	!	!	!	!	!
=52	=52	=52	=52-	=52	=52	=52	=52-	=52	=52-	=52	=52-	=52	=52-	=52-
8G\L]	6 x	.	.	.	4.E\	-dan-	.	.	.	.	.	.	.	.
8C#\	.	.	.	.	.	.	.	.	.	.	.	.	.	.
8D\	.	.	.	.	.	.	.	.	.	.	.	.	.	.
8E\J	.	.	.	.	16F#\LL	-ti-	.	.	.	.	.	.	.	.
.	.	.	.	.	16G\JJ	.	.	.	.	.	.	.	.	.
[<2F#\	x 3	.	.	.	8A\	-a	.	.	.	.	.	.	.	.
*	*	*	*	*	*	*Xij	*	*	*	*	*	*	*	*
.	.	.	.	.	16A\LL	(et)	.	.	.	.	.	.	.	.
.	.	.	.	.	16G\JJ	.	.	.	.	.	.	.	.	.
.	.	.	.	.	16F#\LL	a-	.	.	.	.	.	.	.	.
.	.	.	.	.	16E\JJ	.	.	.	.	.	.	.	.	.
.	.	.	.	.	16D\LL	-bun-	.	.	.	.	.	.	.	.
.	.	.	.	.	16C#\JJ	.	.	.	.	.	.	.	.	.
!	!	!	!	!	!LO:LB:g=original	!	!	!	!	!	!	!	!	!
=53	=53	=53	=53-	=53	=53	=53	=53-	=53	=53-	=53	=53-	=53	=53-	=53-
!!mixed beam:problem
!LO:TX:t=P:problem=mixed beam	!	!	!	!	!	!	!	!	!	!	!	!	!	!
8F#\L]	6 x	.	1r	.	4.D\	-dan-	0r	.	0r	.	00r	.	00r	00r
8BB/	.	.	.	.	.	.	.	.	.	.	.	.	.	.
8C#/	.	.	.	.	.	.	.	.	.	.	.	.	.	.
8D/J	.	.	.	.	16E\LL	-ti-	.	.	.	.	.	.	.	.
.	.	.	.	.	16F#\JJ	.	.	.	.	.	.	.	.	.
[<2E\	x 3	.	.	.	8G\	-a	.	.	.	.	.	.	.	.
.	.	.	.	.	16G\LL	(et)	.	.	.	.	.	.	.	.
.	.	.	.	.	16F#\JJ	.	.	.	.	.	.	.	.	.
.	.	.	.	.	16E\LL	a-	.	.	.	.	.	.	.	.
.	.	.	.	.	16D\JJ	.	.	.	.	.	.	.	.	.
.	.	.	.	.	16C#'</LL	-bun-	.	.	.	.	.	.	.	.
.	.	.	.	.	16BB'</JJ	.	.	.	.	.	.	.	.	.
=54	=54	=54	=54	=54	=54	=54	=54-	=54	=54-	=54	=54-	=54	=54-	=54-
!!mixed beam:problem
!LO:TX:t=P:problem=mixed beam	!	!	!	!	!	!	!	!	!	!	!	!	!	!
8E\L]	6 x	.	2r	.	4.C#/	-dan-	.	.	.	.	.	.	.	.
8AA/	.	.	.	.	.	.	.	.	.	.	.	.	.	.
8BB/	.	.	.	.	.	.	.	.	.	.	.	.	.	.
8C#/J	.	.	.	.	16D\LL	-ti-	.	.	.	.	.	.	.	.
.	.	.	.	.	16E\JJ	.	.	.	.	.	.	.	.	.
4D\	.	.	4r	.	8F#\	-a	.	.	.	.	.	.	.	.
.	.	.	.	.	16d\LL	in	.	.	.	.	.	.	.	.
.	.	.	.	.	16c#\JJ	.	.	.	.	.	.	.	.	.
8r	.	.	8r	.	(>16B\LL	tur-	.	.	.	.	.	.	.	.
.	.	.	.	.	16A\)	.	.	.	.	.	.	.	.	.
8D\	.	.	8f#/	.	(>16G\	.	.	.	.	.	.	.	.	.
.	.	.	.	.	16F#\JJ)	.	.	.	.	.	.	.	.	.
=55	=55	=55	=55	=55	=55	=55	=55-	=55	=55-	=55	=55-	=55	=55-	=55-
!!mixed beam:problem
!LO:TX:t=P:problem=mixed beam	!	!	!	!	!	!	!	!	!LO:TX:b:t=Verte Solo	!	!	!	!	!
8A\L	x 3:	.	4.e/	.	8.E\L	.	1r	.	1r	.	.	.	.	.
8AA/	.	.	.	.	.	.	.	.	.	.	.	.	.	.
.	.	.	.	.	32F#\LL	.	.	.	.	.	.	.	.	.
.	.	.	.	.	32G\JJJ	.	.	.	.	.	.	.	.	.
8A\	.	.	.	.	(>16A\LL	.	.	.	.	.	.	.	.	.
.	.	.	.	.	16B\)	.	.	.	.	.	.	.	.	.
8G\J	.	.	16d/LL	.	(>16c#\	.	.	.	.	.	.	.	.	.
.	.	.	16e/JJ	.	16A\JJ)	.	.	.	.	.	.	.	.	.
!!mixed beam:problem
!LO:TX:t=P:problem=mixed beam	!	!	!	!	!	!	!	!	!	!	!	!	!	!
8F#\L	6 x	.	8f#/L	.	8d\	-ri-	.	.	.	.	.	.	.	.
8G\	6 x	.	8g/	.	16B\LL	-bus	.	.	.	.	.	.	.	.
.	.	.	.	.	16G\JJ	.	.	.	.	.	.	.	.	.
!!mixed beam:problem
!	!	!	!	!	!LO:TX:t=P:problem=mixed beam	!	!	!	!	!	!	!	!	!
8A\	4 x	.	8f#/	.	8A\L	tu-	.	.	.	.	.	.	.	.
8AA/J	x 3	.	8e/J	.	8AA/J	.	.	.	.	.	.	.	.	.
!	!	!	!LO:LB:g=original	!	!	!	!LO:LB:g=original	!	!LO:PB:g=original	!	!	!	!	!
=56	=56	=56	=56	=56	=56	=56	=56	=56	=56	=56	=56-	=56	=56-	=56-
!	!	!	!	!	!	!	!LO:TX:a:i:t=Solo&colon;	!	!	!	!	!	!	!
8D\L	.	.	8f#/	.	4D\	-us	2r	.	2r	.	.	.	.	.
8B\	.	.	4dd\	.	.	.	.	.	.	.	.	.	.	.
8G\	6 5	.	.	.	4r	.	.	.	.	.	.	.	.	.
8A\J	.	.	8cc#\	.	.	.	.	.	.	.	.	.	.	.
!	!	!	!	!	!	!	!	!	!LO:TX:a:i:t=Solo&colon;	!	!	!	!	!
4D\	.	.	4dd\	.	2r	.	4r	.	4r	.	.	.	.	.
4r	.	.	4r	.	.	.	8f#\	prop-	8a\	prop-	.	.	.	.
.	.	.	.	.	.	.	8f#\	-ter	8a\	-ter	.	.	.	.
!	!	!	!	!	!LO:LB:g=original	!	!	!	!	!	!	!	!	!
=57	=57	=57	=57	=57	=57	=57	=57	=57	=57	=57	=57-	=57	=57-	=57-
8r	.	.	8r	.	00r	.	8.f#\L	frat-	8.a\L	frat-	00r	.	00r	00r
!!mixed beam:problem
!LO:TX:t=P:problem=mixed beam	!	!	!	!	!	!	!	!	!	!	!	!	!	!
8D\L	.	.	16f#/LL	.	.	.	.	.	.	.	.	.	.	.
.	.	.	16g/JJ	.	.	.	16g\Jk	.	16b\Jk	.	.	.	.	.
8A\	4 x	.	8f#/L	.	.	.	8f#\	.	8a\	.	.	.	.	.
8AA/J	x 3	.	8e/J	.	.	.	8e\	-res	8g\	-res	.	.	.	.
!LO:LB:g=original	!	!	!	!	!	!	!	!	!	!	!	!	!	!
8D\L	4: x	.	(<4e/	.	.	.	4e\	me-	4g\	me-	.	.	.	.
16D\L	.	.	.	.	.	.	.	.	.	.	.	.	.	.
16C#\JJ	3 x	.	.	.	.	.	.	.	.	.	.	.	.	.
8D\	.	.	8d/)	.	.	.	8d\	-os	8f#\	-os	.	.	.	.
8r	.	.	8r	.	.	.	8f#\	(et)	8a\	(et)	.	.	.	.
=58	=58	=58	=58	=58	=58-	=58	=58	=58	=58	=58	=58-	=58	=58-	=58-
8r	.	.	8r	.	.	.	8.f#\L	pro-	8.a\L	pro-	.	.	.	.
!!mixed beam:problem
!LO:TX:t=P:problem=mixed beam	!	!	!	!	!	!	!	!	!	!	!	!	!	!
8D\L	.	.	16f#/LL	.	.	.	.	.	.	.	.	.	.	.
.	.	.	16g/JJ	.	.	.	16g\Jk	.	16b\Jk	.	.	.	.	.
8A\	4 x	.	8f#/L	.	.	.	8f#\	-xi-	8a\	-xi-	.	.	.	.
8AA/J	x 3	.	8e/J	.	.	.	8e\	-mos	8g\	-mos	.	.	.	.
8D\L	4: x	.	(<4e/	.	.	.	4e\	me-	4g\	me-	.	.	.	.
16D\L	.	.	.	.	.	.	.	.	.	.	.	.	.	.
16C#\JJ	3 x	.	.	.	.	.	.	.	.	.	.	.	.	.
8D\L	.	.	8d/)	.	.	.	8d\	-os	8f#\	-os	.	.	.	.
8d\J	.	.	8r	.	.	.	8f#\	lo-	8a\	lo-	.	.	.	.
!	!	!	!	!	!	!	!LO:LB:g=original	!	!LO:LB:g=original	!	!	!	!	!
=59	=59	=59	=59	=59	=59-	=59	=59	=59	=59	=59	=59-	=59	=59-	=59-
4c#\	6 5	.	4g/	.	.	.	8g\	-que-	4.a\	-que-	.	.	.	.
.	.	.	.	.	.	.	16f#\LL	-bar	.	.	.	.	.	.
.	.	.	.	.	.	.	16e\JJ	.	.	.	.	.	.	.
4d\	.	.	2f#/	.	.	.	4.f#\	pa-	.	.	.	.	.	.
.	.	.	.	.	.	.	.	.	16b\LL	-bar	.	.	.	.
.	.	.	.	.	.	.	.	.	16a\JJ	.	.	.	.	.
4B\	6 5	.	.	.	.	.	.	.	4.g\	pa-	.	.	.	.
.	.	.	.	.	.	.	16e\LL	.	.	.	.	.	.	.
.	.	.	.	.	.	.	16d\JJ	.	.	.	.	.	.	.
4c#\	.	.	[<4e/	.	.	.	[<4e\	.	.	.	.	.	.	.
.	.	.	.	.	.	.	.	.	16a\LL	.	.	.	.	.
.	.	.	.	.	.	.	.	.	16g\JJ	.	.	.	.	.
=60	=60	=60	=60	=60	=60-	=60	=60	=60	=60	=60	=60-	=60	=60-	=60-
!	!	!	!	!	!	!	!LO:N:vis=4:xstem:cue	!	!	!	!	!	!	!
4A\	6 5	.	4e/]	.	.	.	8e\]	.	4.f#\	.	.	.	.	.
.	.	.	.	.	.	.	16d\LL	.	.	.	.	.	.	.
.	.	.	.	.	.	.	16c#\JJ	.	.	.	.	.	.	.
4B\	.	.	4d/	.	.	.	4.d\	.	.	.	.	.	.	.
.	.	.	.	.	.	.	.	.	16g\LL	.	.	.	.	.
.	.	.	.	.	.	.	.	.	16f#\JJ	.	.	.	.	.
!	!	!	!LO:TX:a:t=60:color=gray	!	!	!	!	!	!	!	!	!	!	!
4G\	6 5	.	4e/	.	.	.	.	.	8e\	.	.	.	.	.
.	.	.	.	.	.	.	8e\	-cem	16f#\LL	-cem	.	.	.	.
.	.	.	.	.	.	.	.	.	16g\JJ	.	.	.	.	.
!!mixed beam:problem
!LO:TX:t=P:problem=mixed beam	!	!	!	!	!	!	!	!	!	!	!	!	!	!
8A\L	x 4	.	8d/L	.	.	.	8d\L	de	8f#\L	de	.	.	.	.
8AA/J	x 3	.	8c#/J	.	.	.	8c#\J	.	8e\J	.	.	.	.	.
=61	=61	=61	=61	=61	=61-	=61	=61	=61	=61	=61	=61-	=61	=61	=61
4D\	.	.	4d/	.	1r	.	4d\	te	4f#\	te	1r	.	4r	4r
!	!	!	!LO:LB:g=original	!	!	!	!	!	!	!	!	!	!	!
8r	.	.	8r	.	.	.	4r	.	4r	.	.	.	8r	8r
8F#\	6 x	.	8a/	.	.	.	.	.	.	.	.	.	8d\	8f#\
!	!	!	!	!	!	!	!	!	!	!	!	!	!LO:LB:g=original	!
!!mixed beam:problem
!LO:TX:t=P:problem=mixed beam	!	!	!	!	!	!	!	!	!	!	!	!	!	!
8G\L	6 x	.	8b/L	.	.	.	2r	.	2r	.	.	.	4e\	4g\
8G\	.	.	8g/	.	.	.	.	.	.	.	.	.	.	.
8A\	4 x	.	8f#/	.	.	.	.	.	.	.	.	.	8d\L	8f#\L
8AA/J	3 x	.	8e/J	.	.	.	.	.	.	.	.	.	8A\J	8e\J
!	!	!	!	!	!	!	!	!	!	!	!	!	!	!LO:LB:g=original
=62	=62	=62	=62	=62	=62	=62	=62	=62	=62	=62	=62	=62	=62	=62
!LO:TX:a:i:t=tutti	!	!	!	!LO:DY:a:t=f&colon;	!	!	!	!	!	!	!	!	!	!
8D\L	.	.	8f#/L	f	4D\	prop-	4A\	prop-	4f#\	prop-	4dd\	prop-	2F#/	2d\
8D\	.	.	16f#/L	.	.	.	.	.	.	.	.	.	.	.
.	.	.	16g/JJ	.	.	.	.	.	.	.	.	.	.	.
8D\	.	.	16a/LL	.	4D\	-ter	4A\	-ter	4f#\	-ter	4dd\	-ter	.	.
.	.	.	16f#/	.	.	.	.	.	.	.	.	.	.	.
8D\J	.	.	16b/	.	.	.	.	.	.	.	.	.	.	.
.	.	.	16a/JJ	.	.	.	.	.	.	.	.	.	.	.
*tremolo	*	*	*	*	*	*	*	*	*	*	*	*	*	*
!	!	!	!	!	!	!	!	!	!	!	!LO:LB:g=original	!	!	!
!	!	!	!	!	!LO:SIC:v:s:t=4A\	!	!	!	!	!	!	!	!	!
8A\L	.	.	16a/LL	.	4G\	Do-	4A\	Do-	4e\	Do-	4cc#\	Do-	2A/	2e\
.	.	.	16g/	.	.	.	.	.	.	.	.	.	.	.
8A\	.	.	16f#/	.	.	.	.	.	.	.	.	.	.	.
.	.	.	16g/JJ	.	.	.	.	.	.	.	.	.	.	.
!	!	!	!	!	!LO:SIC:v:s:t=4A\	!	!	!	!	!	!	!	!	!
8A\	.	.	16e/LL	.	4G\	-mum	4A\	-mum	4e\	-mum	4cc#\	-mum	.	.
.	.	.	16f#/	.	.	.	.	.	.	.	.	.	.	.
8A\J	.	.	16g/	.	.	.	.	.	.	.	.	.	.	.
.	.	.	16e/JJ	.	.	.	.	.	.	.	.	.	.	.
*Xtremolo	*	*	*	*	*	*	*	*	*	*	*	*	*	*
!LO:LB:g=original	!	!	!	!	!	!	!LO:LB:g=original	!	!LO:LB:g=original	!	!	!	!	!
=63	=63	=63	=63	=63	=63	=63	=63	=63	=63	=63	=63	=63	=63	=63
8AA/L	.	.	16c#/LL	.	4A\	Do-	4A\	Do-	4e\	Do-	4cc#\	Do-	2A/	2e\
.	.	.	16d/	.	.	.	.	.	.	.	.	.	.	.
8AA/	.	.	16e/	.	.	.	.	.	.	.	.	.	.	.
.	.	.	16f#/JJ	.	.	.	.	.	.	.	.	.	.	.
8AA/	.	.	16g/LL	.	8A\	-mi-	8A\	-mi-	8e\	-mi-	8cc#\	-mi-	.	.
.	.	.	16e/	.	.	.	.	.	.	.	.	.	.	.
8AA/J	.	.	16a/	.	8A\	-ni	8A\	-ni	8e\	-ni	8cc#\	-ni	.	.
.	.	.	16g/JJ	.	.	.	.	.	.	.	.	.	.	.
8D\L	.	.	16g/LL	.	4D\	De-	4A\	De-	4f#\	De-	4dd\	De-	2d\	2f#\
.	.	.	16f#/	.	.	.	.	.	.	.	.	.	.	.
8D\	.	.	16e/	.	.	.	.	.	.	.	.	.	.	.
.	.	.	16f#/JJ	.	.	.	.	.	.	.	.	.	.	.
8F#\	6 x	.	16d/LL	.	4F#\	-i	4A\	-i	4a\	-i	4dd\	-i	.	.
.	.	.	16e/	.	.	.	.	.	.	.	.	.	.	.
8F#\J	.	.	16f#/	.	.	.	.	.	.	.	.	.	.	.
.	.	.	16d/JJ	.	.	.	.	.	.	.	.	.	.	.
=64	=64	=64	=64	=64	=64	=64	=64	=64	=64	=64	=64	=64	=64	=64
*tremolo	*	*	*tremolo	*	*	*	*	*	*	*	*	*	*	*
8G\L	6 x	.	8b\L	.	4G\	noſ-	4G/	noſ-	4b\	Noſ-	4ee\	noſ-	2e\	2g\
8G\	.	.	8b\	.	.	.	.	.	.	.	.	.	.	.
8G\	.	.	8b\	.	8G\	-tri	8G/	-tri	8b\	-tri	8ee\	-tri	.	.
8G\J	.	.	8b\J	.	8G\	quae-	8G/	quae-	8b\	quae-	8ee\	quae-	.	.
8F#\L	6 x	.	8a/L	.	4F#\	-ſi-	4A\	-ſi-	4a\	-ſi-	4dd\	-ſi-	2d\	2f#\
8F#\	.	.	8a/	.	.	.	.	.	.	.	.	.	.	.
8F#\	.	.	8a/	.	4F#\	-vi	4A\	-vi	4a\	-vi	4dd\	-vi	.	.
8F#\J	.	.	8a/J	.	.	.	.	.	.	.	.	.	.	.
*Xtremolo	*	*	*Xtremolo	*	*	*	*	*	*	*	*	*	*	*
!	!	!	!LO:LB:g=original	!	!	!	!	!	!	!	!	!	!	!
=65	=65	=65	=65	=65	=65	=65	=65	=65	=65	=65	=65	=65	=65	=65
8E\L	6 3	.	8g/L	.	8E\L	bo-	4A\	bo-	4g\	bo-	8cc#\L	bo-	4e\	4g\
8C#\	.	.	8a/	.	8C#\J	.	.	.	.	.	8ee\J	.	.	.
8D\	.	.	8a/	.	4D\	-na	4A\	-na	4f#\	-na	8dd\	.	4d\	4f#\
8F#\J	.	.	8a/J	.	.	.	.	.	.	.	8dd\	-na	.	.
!!mixed beam:problem
!LO:TX:t=P:problem=mixed beam	!	!	!	!	!	!	!	!	!	!	!	!	!	!
8A\L	4 x	.	8dd\L	.	4A\	ti-	4A\	ti-	4f#\	ti-	4dd\	ti-	4d\	4f#\
8A\	.	.	16cc#\L	.	.	.	.	.	.	.	.	.	.	.
.	.	.	16dd\JJ	.	.	.	.	.	.	.	.	.	.	.
!!mixed beam:problem
!	!	!	!LO:TX:t=P:problem=mixed beam	!	!	!	!	!	!	!	!	!	!	!
8AA/	x 3	.	8cc#\L	.	4AA/	-bi	4A\	-bi	4e\	-bi	4cc#\	-bi	8A/	8e\
8AA/J	.	.	8e/J	.	.	.	.	.	.	.	.	.	8r	8r
!	!	!	!	!	!LO:LB:g=original	!	!LO:PB:g=original	!	!	!	!LO:LB:g=original	!	!	!
=66	=66	=66	=66	=66	=66	=66	=66	=66	=66	=66	=66	=66	=66	=66
*tremolo	*	*	*	*	*	*	*	*	*	*	*	*	*	*
8C#/L	6 5	.	16a/LL	.	4C#/	quae-	4A\	quae-	4g\	quae-	4ee\	quae-	2A/	2e\
.	.	.	16g/	.	.	.	.	.	.	.	.	.	.	.
8C#/	.	.	16f#/	.	.	.	.	.	.	.	.	.	.	.
.	.	.	16e/JJ	.	.	.	.	.	.	.	.	.	.	.
8C#/	.	.	16d/LL	.	8C#/	-ſi-	8A\	-ſi-	8g\	-ſi-	8ee\	-ſi-	.	.
.	.	.	16e/	.	.	.	.	.	.	.	.	.	.	.
8C#/J	.	.	16a/	.	8C#/	-vi	8A\	-vi	8g\	-vi	8ee\	-vi	.	.
.	.	.	16g/JJ	.	.	.	.	.	.	.	.	.	.	.
!	!	!	!	!	!	!	!	!	!LO:LB:g=original	!	!	!	!	!
8D/L	.	.	16g/LL	.	4D\	bo-	4A\	bo-	4f#\	bo-	4dd\	bo-	2d\	2f#\
.	.	.	16f#/	.	.	.	.	.	.	.	.	.	.	.
8D/	.	.	16e/	.	.	.	.	.	.	.	.	.	.	.
.	.	.	16f#/JJ	.	.	.	.	.	.	.	.	.	.	.
8D/	.	.	16d/LL	.	4D\	-na	4A\	-na	4f#\	-na	4dd\	-na	.	.
.	.	.	16f#/	.	.	.	.	.	.	.	.	.	.	.
8D/J	.	.	16b/	.	.	.	.	.	.	.	.	.	.	.
.	.	.	16a/JJ	.	.	.	.	.	.	.	.	.	.	.
=67	=67	=67	=67	=67	=67	=67	=67	=67	=67	=67	=67	=67	=67	=67
*	*	*	*	*	*	*ij	*	*ij	*	*	*	*ij	*	*
8C#/L	6 5	.	16a/LL	.	4C#/	quae-	4A\	quae-	4g\	quae-	4ee\	quae-	2A/	2e\
.	.	.	16g/	.	.	.	.	.	.	.	.	.	.	.
8C#/	.	.	16f#/	.	.	.	.	.	.	.	.	.	.	.
.	.	.	16e/JJ	.	.	.	.	.	.	.	.	.	.	.
8C#/	.	.	16d/LL	.	8C#/	-ſi-	8A\	-ſi-	8g\	-ſi-	8ee\	-ſi-	.	.
.	.	.	16e/	.	.	.	.	.	.	.	.	.	.	.
8C#/J	.	.	16a/	.	8C#/	-vi	8A\	-vi	8g\	-vi	8ee\	-vi	.	.
.	.	.	16g/JJ	.	.	.	.	.	.	.	.	.	.	.
8D/L	.	.	16g/LL	.	4D\	bo-	4A\	bo-	4f#\	bo-	4dd\	bo-	2d\	2f#\
.	.	.	16f#/	.	.	.	.	.	.	.	.	.	.	.
8D/	.	.	16e/	.	.	.	.	.	.	.	.	.	.	.
.	.	.	16f#/JJ	.	.	.	.	.	.	.	.	.	.	.
8D/	.	.	16d/LL	.	4D\	-na	4A\	-na	4f#\	-na	4dd\	-na	.	.
.	.	.	16f#/	.	.	.	.	.	.	.	.	.	.	.
8D/J	.	.	16b/	.	.	.	.	.	.	.	.	.	.	.
.	.	.	16a/JJ	.	.	.	.	.	.	.	.	.	.	.
*Xtremolo	*	*	*	*	*	*	*	*	*	*	*	*	*	*
!	!	!	!LO:LB:g=original	!	!	!	!	!	!	!	!	!	!	!
=68	=68	=68	=68	=68	=68	=68	=68	=68	=68	=68	=68	=68	=68	=68
*	*	*	*	*	*	*	*	*	*	*ij	*	*	*	*
8F#\L	6 3	.	16g/LL	.	4F#\	quae-	4d\	quae-	4a\	quae-	4dd\	quae-	4d\	4f#\
.	.	.	16f#/	.	.	.	.	.	.	.	.	.	.	.
8F#\	.	.	16e/	.	.	.	.	.	.	.	.	.	.	.
.	.	.	16d/JJ	.	.	.	.	.	.	.	.	.	.	.
8G\	6 3	.	16e/LL	.	8G\	-ſi-	8B\	-ſi-	8b\	-ſi-	8ee\	-ſi-	4e\	4g\
.	.	.	16f#/	.	.	.	.	.	.	.	.	.	.	.
8G\J	.	.	16g/	.	8G\	-vi	8B\	-vi	8b\	-vi	8ee\	-vi	.	.
.	.	.	16e/JJ	.	.	.	.	.	.	.	.	.	.	.
8A\L	7 x	.	16a/LL	.	4A\	bo-	4A\	bo-	4g\	bo-	4cc#\	bo-	4A/	4e\
.	.	.	16g/	.	.	.	.	.	.	.	.	.	.	.
8A\	.	.	16f#/	.	.	.	.	.	.	.	.	.	.	.
.	.	.	16e/JJ	.	.	.	.	.	.	.	.	.	.	.
8B\	.	.	16d/LL	.	4B\	-na	4B\	-na	4f#\	-na	4dd\	-na	4d\	4f#\
.	.	.	16e/	.	.	.	.	.	.	.	.	.	.	.
8B\J	.	.	16f#/	.	.	.	.	.	.	.	.	.	.	.
.	.	.	16d/JJ	.	.	.	.	.	.	.	.	.	.	.
*	*	*	*	*	*	*Xij	*	*Xij	*	*Xij	*	*Xij	*	*
!	!	!	!	!	!	!	!	!	!	!	!LO:LB:g=original	!	!LO:LB:g=original	!LO:LB:g=original
=69	=69	=69	=69	=69	=69	=69	=69	=69	=69	=69	=69	=69	=69	=69
!!mixed beam:problem
!LO:TX:t=P:problem=mixed beam	!	!	!	!	!	!	!	!	!	!	!	!	!	!
8G\L	6 x	.	8e/L	.	4G\	ti-	(>4B\	ti-	4g\	ti-	4ee\	ti-	4e\	4g\
8G\	.	.	8g/	.	.	.	.	.	.	.	.	.	.	.
8A\	4 x	.	8f#/	.	4A\	.	4A\)	.	8f#\L	.	8dd\L	.	8d\L	8f#\L
8AA/J	x 3	.	8e/J	.	.	.	.	.	8e\J	.	8cc#\J	.	8A\J	8e\J
!LO:LB:g=original	!	!	!	!	!	!	!LO:LB:g=original	!	!	!	!	!	!	!
8D\L	.	.	8f#/	.	4D\	-bi	4A\	-bi	4f#\	-bi	4dd\	-bi	4F#/	4d\
8B\	.	.	4dd\	.	.	.	.	.	.	.	.	.	.	.
8G\	6 5	.	.	.	4r	.	4r	.	4r	.	4r	.	4r	4r
8A\J	.	.	8cc#\	.	.	.	.	.	.	.	.	.	.	.
!	!	!	!	!	!	!	!	!	!LO:LB:g=original	!	!	!	!	!
=70	=70	=70	=70	=70	=70	=70	=70	=70	=70	=70	=70	=70	=70	=70
!	!	!	!	!	!LO:TX:a:t=4.	!	!	!	!LO:TX:a:i:t=Solo&colon;	!	!LO:TX:a:i:t=Solo&colon;	!	!	!
4D\	.	.	4dd\	.	00r	.	00r	.	8r	.	8r	.	0r	0r
.	.	.	.	.	.	.	.	.	8f#\	glo-	8dd\	glo-	.	.
4r	.	.	4r	.	.	.	.	.	16f#\LL	-ri-	16dd\LL	-ri-	.	.
.	.	.	.	.	.	.	.	.	16e\JJ	.	16cc#\JJ	.	.	.
.	.	.	.	.	.	.	.	.	16f#\LL	-a	16dd\LL	-a	.	.
.	.	.	.	.	.	.	.	.	16g\JJ	.	16ee\JJ	.	.	.
!	!	!	!	!LO:DY:a:rj:t=p&colon;	!	!	!	!	!	!	!	!	!	!
2r	.	.	8r	p	.	.	.	.	4a\	pa-	4ff#\	pa-	.	.
!	!	!	!LO:TX:a:t=70:color=gray	!	!	!	!	!	!	!	!	!	!	!
.	.	.	8d/L	.	.	.	.	.	.	.	.	.	.	.
.	.	.	8c#/	.	.	.	.	.	8g\	-tri	8ee\	-tri	.	.
.	.	.	8d/J	.	.	.	.	.	8f#\	(et)	8dd\	(et)	.	.
=71	=71	=71	=71	=71	=71-	=71	=71-	=71	=71	=71	=71	=71	=71-	=71-
1r	.	.	8a/L	.	.	.	.	.	8.f#\	fi-	8.dd\	fi-	.	.
.	.	.	8a/	.	.	.	.	.	.	.	.	.	.	.
.	.	.	.	.	.	.	.	.	16f#\	-li-	32ee\LLL	-li-	.	.
.	.	.	.	.	.	.	.	.	.	.	32dd\JJJ	.	.	.
.	.	.	8A/	.	.	.	.	.	8e\	-o	8cc#\	-o	.	.
.	.	.	8A/J	.	.	.	.	.	8g\	(et)	8ee\	(et)	.	.
.	.	.	4d/	.	.	.	.	.	8f#\L	ſpi-	8dd\L	ſpi-	.	.
.	.	.	.	.	.	.	.	.	16g\L	.	16ee\L	.	.	.
.	.	.	.	.	.	.	.	.	16a\JJ	.	16ff#\JJ	.	.	.
.	.	.	8r	.	.	.	.	.	16b\LL	.	16gg\LL	.	.	.
.	.	.	.	.	.	.	.	.	16a\	.	16ff#\	.	.	.
.	.	.	8d/	.	.	.	.	.	16g\	.	16ee\	.	.	.
.	.	.	.	.	.	.	.	.	16f#\JJ	.	16dd\JJ	.	.	.
!	!	!	!LO:LB:g=original	!	!	!	!	!	!	!	!LO:LB:g=original	!	!	!
=72	=72	=72	=72	=72	=72-	=72	=72-	=72	=72	=72	=72	=72	=72-	=72-
!	!	!LO:DY:a:t=p&colon;	!	!	!	!	!	!	!	!	!	!	!	!
4r	.	p	8A/L	.	.	.	.	.	8e\L	-ri-	4cc#\	-ri-	1r	1r
.	.	.	8A/	.	.	.	.	.	16f#\L	.	.	.	.	.
.	.	.	.	.	.	.	.	.	16g\JJ	.	.	.	.	.
!	!	!	!	!	!	!	!	!	!LO:LB:g=original	!	!	!	!	!
8r	.	.	8c#/	.	.	.	.	.	8a\	-tu-	8ee\	-tu-	.	.
8A\	.	.	8c#/J	.	.	.	.	.	8g\	-i	8ee\	-i	.	.
!!mixed beam:problem
!LO:TX:t=P:problem=mixed beam	!	!	!	!	!	!	!	!	!	!	!	!	!	!
8d\L	.	.	8d/L	.	.	.	.	.	8f#\L	ſanc-	8dd\L	ſanc-	.	.
8G\	6 x	.	8e/	.	.	.	.	.	8g\	.	8ee\	.	.	.
8A\	4 x	.	8d/	.	.	.	.	.	8f#\	.	8dd\	.	.	.
8AA/J	x 3	.	8c#/J	.	.	.	.	.	8e\J	.	8cc#\J	.	.	.
=73	=73	=73	=73	=73	=73-	=73	=73-	=73	=73	=73	=73	=73	=73	=73
4D\	.	.	4d/	.	.	.	.	.	4f#\	-to	4dd\	-to	2r	2r
8r	.	.	8r	.	.	.	.	.	4r	.	4r	.	.	.
8F#\	6 x	.	8a/	.	.	.	.	.	.	.	.	.	.	.
!!mixed beam:problem
!LO:TX:t=P:problem=mixed beam	!	!	!	!	!	!	!	!	!	!	!LO:TX:b:t=Verte	!	!	!
8G\L	6 x	.	8g/L	.	.	.	.	.	2r	.	2r	.	8r	8r
8G\	.	.	8g/	.	.	.	.	.	.	.	.	.	8e\L	8g\L
8A\	4 x	.	8f#/	.	.	.	.	.	.	.	.	.	8d\	8f#\
8AA/J	x 3	.	8e/J	.	.	.	.	.	.	.	.	.	8A\J	8e\J
!	!	!	!	!	!LO:LB:g=original	!	!	!	!	!	!	!	!	!
=74	=74	=74	=74	=74	=74	=74	=74	=74	=74	=74	=74	=74	=74	=74
!LO:TX:a:i:t=tutti	!	!	!	!LO:DY:a:t=f&colon;	!	!	!	!	!	!	!	!	!	!
8D\L	.	.	16f#/LL	f	4D\	ſi-	4d\	ſi-	4a\	ſi-	4ff#\	ſi-	4F#/	1d
.	.	.	16a/	.	.	.	.	.	.	.	.	.	.	.
8D\	.	.	16f#/	.	.	.	.	.	.	.	.	.	.	.
.	.	.	16a/JJ	.	.	.	.	.	.	.	.	.	.	.
8D\	.	.	16f#/LL	.	4D\	-cut	4d\	-cut	4a\	-cut	4ff#\	-cut	4D/	.
.	.	.	16a/	.	.	.	.	.	.	.	.	.	.	.
8D\J	.	.	16f#/	.	.	.	.	.	.	.	.	.	.	.
.	.	.	16a/JJ	.	.	.	.	.	.	.	.	.	.	.
*tremolo	*	*	*tremolo	*	*	*	*	*	*	*	*	*	*	*
8D\L	6 4	.	16g/LL	.	4D\	e-	4d\	e-	4b\	e-	4gg\	e-	2D/	.
.	.	.	16b/	.	.	.	.	.	.	.	.	.	.	.
8D\	.	.	16g/	.	.	.	.	.	.	.	.	.	.	.
.	.	.	16b/	.	.	.	.	.	.	.	.	.	.	.
8D\	.	.	16g/	.	4D\	-rat	4d\	-rat	4b\	-rat	4gg\	-rat	.	.
.	.	.	16b/	.	.	.	.	.	.	.	.	.	.	.
8D\J	.	.	16g/	.	.	.	.	.	.	.	.	.	.	.
.	.	.	16b/JJ	.	.	.	.	.	.	.	.	.	.	.
=75	=75	=75	=75	=75	=75	=75	=75	=75	=75	=75	=75	=75	=75	=75
8D\L	5 3	.	16f#/LL	.	4D\	in	4d\	in	4a\	in	4ff#\	in	4D/	2d\
.	.	.	16a/	.	.	.	.	.	.	.	.	.	.	.
8D\	.	.	16f#/	.	.	.	.	.	.	.	.	.	.	.
.	.	.	16a/	.	.	.	.	.	.	.	.	.	.	.
8D\	.	.	16f#/	.	4D\	prin-	4d\	prin-	4a\	prin-	4ff#\	prin-	4F#/	.
.	.	.	16a/	.	.	.	.	.	.	.	.	.	.	.
8D\J	.	.	16f#/	.	.	.	.	.	.	.	.	.	.	.
.	.	.	16a/JJ	.	.	.	.	.	.	.	.	.	.	.
8C#/L	6 5	.	16e/LL	.	4.C#/	-ci-	4.e\	-ci-	4.a\	-ci-	4.ee\	-ci-	2A/	2e\
.	.	.	16a/	.	.	.	.	.	.	.	.	.	.	.
8C#/	.	.	16e/	.	.	.	.	.	.	.	.	.	.	.
.	.	.	16a/	.	.	.	.	.	.	.	.	.	.	.
8C#/	.	.	16e/	.	.	.	.	.	.	.	.	.	.	.
.	.	.	16a/	.	.	.	.	.	.	.	.	.	.	.
8C#/J	.	.	16e/	.	8C#/	-pi-	8e\	-pi-	8a\	-pi-	8ee\	-pi-	.	.
.	.	.	16a/JJ	.	.	.	.	.	.	.	.	.	.	.
*Xtremolo	*	*	*Xtremolo	*	*	*	*	*	*	*	*	*	*	*
!LO:LB:g=original	!	!	!LO:PB:g=original	!	!	!	!	!	!	!	!	!	!	!
=76	=76	=76	=76	=76	=76	=76	=76	=76	=76	=76	=76	=76	=76	=76
8D\L	.	.	16f#/LL	.	4D\	-o	4d\	-o	4a\	-o	4ff#\	-o	4F#/	1d
.	.	.	16a/	.	.	.	.	.	.	.	.	.	.	.
8D\	.	.	16f#/	.	.	.	.	.	.	.	.	.	.	.
.	.	.	16a/JJ	.	.	.	.	.	.	.	.	.	.	.
!	!	!	!	!	!	!	!	!	!LO:LB:g=original	!	!	!	!	!
*	*	*	*	*	*	*ij	*	*	*	*	*	*ij	*	*
8D\	.	.	16f#/LL	.	8D\	ſi-	8d\	ſi-	8a\	ſi-	8ff#\	ſi-	4D/	.
.	.	.	16a/	.	.	.	.	.	.	.	.	.	.	.
8D\J	.	.	16f#/	.	8D\	-cut	8d\	-cut	8a\	-cut	8ff#\	-cut	.	.
.	.	.	16a/JJ	.	.	.	.	.	.	.	.	.	.	.
*tremolo	*	*	*tremolo	*	*	*	*	*	*	*	*	*	*	*
8D\L	6 4	.	16g/LL	.	4D\	e-	4d\	e-	4b\	e-	4gg\	e-	2D/	.
.	.	.	16b/	.	.	.	.	.	.	.	.	.	.	.
8D\	.	.	16g/	.	.	.	.	.	.	.	.	.	.	.
.	.	.	16b/	.	.	.	.	.	.	.	.	.	.	.
8D\	.	.	16g/	.	4D\	-rat	4d\	-rat	4b\	-rat	4gg\	-rat	.	.
.	.	.	16b/	.	.	.	.	.	.	.	.	.	.	.
8D\J	.	.	16g/	.	.	.	.	.	.	.	.	.	.	.
.	.	.	16b/JJ	.	.	.	.	.	.	.	.	.	.	.
=77	=77	=77	=77	=77	=77	=77	=77	=77	=77	=77	=77	=77	=77	=77
8D\L	5 3	.	16f#/LL	.	4D\	in	4d\	in	4a\	in	4ff#\	in	4D/	2d\
.	.	.	16a/	.	.	.	.	.	.	.	.	.	.	.
8D\	.	.	16f#/	.	.	.	.	.	.	.	.	.	.	.
.	.	.	16a/	.	.	.	.	.	.	.	.	.	.	.
8D\	.	.	16f#/	.	4D\	prin-	4d\	prin-	4a\	prin-	4ff#\	prin-	4F#/	.
.	.	.	16a/	.	.	.	.	.	.	.	.	.	.	.
8D\J	.	.	16f#/	.	.	.	.	.	.	.	.	.	.	.
.	.	.	16a/JJ	.	.	.	.	.	.	.	.	.	.	.
!	!	!	!	!	!	!	!LO:LB:g=original	!	!	!	!	!	!	!
8C#/L	6 5	.	16e/LL	.	4.C#/	-ci-	4.e\	-ci-	4.a\	-ci-	4.ee\	-ci-	2A/	2e\
.	.	.	16a/	.	.	.	.	.	.	.	.	.	.	.
8C#/	.	.	16e/	.	.	.	.	.	.	.	.	.	.	.
.	.	.	16a/	.	.	.	.	.	.	.	.	.	.	.
8C#/	.	.	16e/	.	.	.	.	.	.	.	.	.	.	.
.	.	.	16a/	.	.	.	.	.	.	.	.	.	.	.
8C#/J	.	.	16e/	.	8C#/	-pi-	8e\	-pi-	8a\	-pi-	8ee\	-pi-	.	.
.	.	.	16a/JJ	.	.	.	.	.	.	.	.	.	.	.
=78	=78	=78	=78	=78	=78	=78	=78	=78	=78	=78	=78	=78	=78	=78
8D\L	.	.	16f#/LL	.	4D\	-o	4d\	-o	4a\	-o	4ff#\	-o	2d\	2f#\
.	.	.	16a/	.	.	.	.	.	.	.	.	.	.	.
8D\	.	.	16f#/	.	.	.	.	.	.	.	.	.	.	.
.	.	.	16a/	.	.	.	.	.	.	.	.	.	.	.
*	*	*	*	*	*	*Xij	*	*	*	*	*	*Xij	*	*
!	!	!	!	!	!	!	!	!	!	!	!LO:LB:g=original	!	!	!
8D\	.	.	16f#/	.	4D\	(et)	4A\	(et)	4f#\	(et)	4dd\	(et)	.	.
.	.	.	16a/	.	.	.	.	.	.	.	.	.	.	.
8D\J	.	.	16f#/	.	.	.	.	.	.	.	.	.	.	.
.	.	.	16a/JJ	.	.	.	.	.	.	.	.	.	.	.
8E\L	6 3	.	16g/LL	.	4E\	nunc	4A\	nunc	4g\	nunc	4cc#\	nunc	2e\	2g\
.	.	.	16a/	.	.	.	.	.	.	.	.	.	.	.
8E\	.	.	16g/	.	.	.	.	.	.	.	.	.	.	.
.	.	.	16a/	.	.	.	.	.	.	.	.	.	.	.
8E\	.	.	16g/	.	4E\	(et)	4A\	(et)	4g\	(et)	4cc#\	(et)	.	.
.	.	.	16a/	.	.	.	.	.	.	.	.	.	.	.
8E\J	.	.	16g/	.	.	.	.	.	.	.	.	.	.	.
.	.	.	16a/JJ	.	.	.	.	.	.	.	.	.	.	.
!	!	!	!	!	!LO:LB:g=original	!	!	!	!	!	!	!	!LO:LB:g=original	!LO:LB:g=original
=79	=79	=79	=79	=79	=79	=79	=79	=79	=79	=79	=79	=79	=79	=79
8C#/L	6 5	.	16e/LL	.	4C#/	ſem-	4A\	ſem-	4g\	ſem-	4ee\	ſem-	2A/	2e\
.	.	.	16a/	.	.	.	.	.	.	.	.	.	.	.
8C#/	.	.	16e/	.	.	.	.	.	.	.	.	.	.	.
.	.	.	16a/	.	.	.	.	.	.	.	.	.	.	.
8C#/	.	.	16e/	.	4C#/	-per	4A\	-per	4g\	-per	4ee\	-per	.	.
.	.	.	16a/	.	.	.	.	.	.	.	.	.	.	.
8C#/J	.	.	16e/	.	.	.	.	.	.	.	.	.	.	.
.	.	.	16a/JJ	.	.	.	.	.	.	.	.	.	.	.
8D\L	.	.	16f#/LL	.	4D\	(et)	4A\	(et)	4f#\	(et)	4dd\	(et)	2d\	2f#\
.	.	.	16a/	.	.	.	.	.	.	.	.	.	.	.
8D\	.	.	16f#/	.	.	.	.	.	.	.	.	.	.	.
.	.	.	16a/	.	.	.	.	.	.	.	.	.	.	.
8D\	.	.	16f#/	.	4D\	in	4A\	in	4f#\	in	4dd\	in	.	.
.	.	.	16a/	.	.	.	.	.	.	.	.	.	.	.
8D\J	.	.	16f#/	.	.	.	.	.	.	.	.	.	.	.
.	.	.	16a/JJ	.	.	.	.	.	.	.	.	.	.	.
!	!	!	!	!	!	!	!	!	!LO:LB:g=original	!	!	!	!	!
=80	=80	=80	=80	=80	=80	=80	=80	=80	=80	=80	=80	=80	=80	=80
8F#\L	6 3	.	16dd\LL	.	4F#\	ſae-	4d\	ſae-	4a\	ſae-	4dd\	ſae-	2d\	2f#\
.	.	.	16dd\	.	.	.	.	.	.	.	.	.	.	.
8F#\	.	.	16dd\	.	.	.	.	.	.	.	.	.	.	.
.	.	.	16dd\JJ	.	.	.	.	.	.	.	.	.	.	.
8F#\	.	.	16dd\LL	.	8F#\	-cu-	8d\	-cu-	8a\	-cu-	8dd\	-cu-	.	.
.	.	.	16dd\	.	.	.	.	.	.	.	.	.	.	.
8F#\J	.	.	16dd\	.	8F#\	-la	8d\	-la	8a\	-la	8dd\	-la	.	.
.	.	.	16dd\JJ	.	.	.	.	.	.	.	.	.	.	.
8G\L	6 3	.	16b\LL	.	4G\	ſae-	4B\	ſae-	4b\	ſae-	4ee\	ſae-	2e\	2g\
.	.	.	16b\	.	.	.	.	.	.	.	.	.	.	.
8G\	.	.	16b\	.	.	.	.	.	.	.	.	.	.	.
.	.	.	16b\	.	.	.	.	.	.	.	.	.	.	.
8G\	.	.	16b\	.	4G\	-cu-	4B\	-cu-	4b\	-cu-	4ee\	-cu-	.	.
.	.	.	16b\	.	.	.	.	.	.	.	.	.	.	.
8G\J	.	.	16b\	.	.	.	.	.	.	.	.	.	.	.
.	.	.	16b\JJ	.	.	.	.	.	.	.	.	.	.	.
*Xtremolo	*	*	*Xtremolo	*	*	*	*	*	*	*	*	*	*	*
!	!	!	!LO:LB:g=original	!	!	!	!	!	!	!	!	!	!	!
=81	=81	=81	=81	=81	=81	=81	=81	=81	=81	=81	=81	=81	=81	=81
8A\L	7 x	.	8g/L	.	4A\	-lo-	4A\	-lo-	4g\	-lo-	4ee\	-lo-	4A/	4e\
8A\	.	.	8g/	.	.	.	.	.	.	.	.	.	.	.
8B\	.	.	8f#/	.	4B\	-rum	4B\	-rum	4f#\	-rum	4dd\	-rum	4d\	4f#\
8B\J	.	.	8f#/J	.	.	.	.	.	.	.	.	.	.	.
!	!	!	!	!	!	!	!LO:LB:g=original	!	!	!	!	!	!	!
!!mixed beam:problem
!LO:TX:t=P:problem=mixed beam	!	!	!	!	!	!	!	!	!	!	!	!	!	!
8G\L	6 x	.	16g/LL	.	4G\	a-	4B\	a-	4g\	a-	4ee\	a-	4e\	4g\
.	.	.	16a/	.	.	.	.	.	.	.	.	.	.	.
8G\	.	.	16b/	.	.	.	.	.	.	.	.	.	.	.
.	.	.	16g/JJ	.	.	.	.	.	.	.	.	.	.	.
8A\	4 x	.	16g/LL	.	4A\	.	4A\	.	8f#\L	.	8dd\L	.	8d\L	8f#\L
.	.	.	16f#/	.	.	.	.	.	.	.	.	.	.	.
8AA/J	x 3	.	16f#/	.	.	.	.	.	8e\J	.	8cc#\J	.	8A\J	8e\J
.	.	.	16e/JJ	.	.	.	.	.	.	.	.	.	.	.
=82	=82	=82	=82	=82	=82	=82	=82	=82	=82	=82	=82	=82	=82	=82
!	!	!	!	!LO:DY:a:t=p&colon;	!	!	!	!	!	!	!	!	!	!
8D\	.	.	8f#/L	p	8D\	-men	8A\	-men	8f#\	-men	8dd\	-men	8F#/	8d\
!!mixed beam:problem
!	!	!	!LO:TUP:a:problem=klamra łukowa, kropka zamiast numeru	!	!	!	!	!	!	!	!	!	!	!
8r	.	.	24d/L	.	8r	.	8r	.	8r	.	8r	.	8r	8r
.	.	.	24e/	.	.	.	.	.	.	.	.	.	.	.
.	.	.	24d/JJ	.	.	.	.	.	.	.	.	.	.	.
!	!	!	!	!	!	!	!	!	!	!	!LO:LB:g=original	!	!	!
!!mixed beam:problem
!	!	!	!LO:TX:t=P:problem=mixed beam	!LO:DY:a:t=f&colon;	!	!	!	!	!	!	!	!	!	!
8r	.	.	8c#/L	f	8r	.	8r	.	8r	.	8r	.	8r	8r
*	*	*	*	*	*	*ij	*	*ij	*	*ij	*	*	*	*
!	!	!	!LO:TX:b:t=|:problem	!	!	!	!	!	!	!	!	!	!	!
8AA/	.	.	8cc#\J	.	8A\	a-	8A\	a-	8e\	a-	8cc#\	a-	8A/	8e\
!!mixed beam:problem
!LO:LB:g=original	!	!	!LO:TX:t=P:problem=mixed beam	!LO:DY:a:t=p&colon;	!	!	!	!	!	!	!	!	!	!
8D\	.	.	8dd\L	p	8D\	-men	8A\	-men	8f#\	-men	8dd\	-men	8F#/	8d\
!	!	!	!LO:TUP:a:problem=klamra łukowa, kropka zamiast numeru	!	!	!	!	!	!	!	!	!	!	!
8r	.	.	24d/L	.	8r	.	8r	.	8r	.	8r	.	8r	8r
.	.	.	24e/	.	.	.	.	.	.	.	.	.	.	.
.	.	.	24d/JJ	.	.	.	.	.	.	.	.	.	.	.
!!mixed beam:problem
!	!	!	!LO:TX:t=P:problem=mixed beam	!LO:DY:a:t=f&colon;	!	!	!	!	!	!	!	!	!	!
8r	.	.	8c#/L	f	8r	.	8r	.	8r	.	8r	.	8r	8r
*	*	*	*	*	*	*	*	*	*	*	*	*ij	*	*
8AA/	.	.	8cc#\J	.	8A\	a-	8A\	a-	8e\	a-	8cc#\	a-	8A/	8e\
=83	=83	=83	=83	=83	=83	=83	=83	=83	=83	=83	=83	=83	=83	=83
4D\	.	.	4f#\ 4dd\	.	4D\	-men	4A\	-men	4f#\	-men	4dd\	-men	4F#/	4d\
4r	.	.	4r	.	4r	.	4r	.	4r	.	4r	.	4r	4r
2r	.	.	2r	.	2r	.	2r	.	2r	.	2r	.	2r	2r
*	*	*	*	*	*	*Xij	*	*Xij	*	*Xij	*	*Xij	*	*
==	==	==	==	==	==	==	==	==	==	==	==	==	==	==
*-	*-	*-	*-	*-	*-	*-	*-	*-	*-	*-	*-	*-	*-	*-
!!!system-decoration: [(g1)][(g2)],g3,g4
!!!RDF**kern: > = above
!!!RDF**kern: < = below
!!!ENC: Andrzej Kubiczek
!!!END: 2020-07-17
!!!EED: Jędrzej Mróz
!!!EEV: 2022-01-17
!!!YEC: Copyright 2022 Narodowy Instytut Fryderyka Chopina (https://polishscores.org)
!!!YEM: License CC-BY-4.0 (https://creativecommons.org/licenses/by/4.0)
